RipherLee/BUAA_Robotics_Simulation/datas/robot_trajectory_table.csv
time,q1,q2,q3,q4,q5,q6,qd1,qd2,qd3,qd4,qd5,qd6,qdd1,qdd2,qdd3,qdd4,qdd5,qdd6,tau1,tau2,tau3,tau4,tau5,tau6,x,y,z
0,0,0,0,0,0,0,0,0,0,0,0,0,0,0,0,0,0,0,0,0,0,0,0,0,0.4095,3.64332422746338e-18,0.57002
0.01,-2.28336659719848e-24,1.09888664648636e-09,5.11223347265556e-08,-1.52069733819895e-22,1.89657742398792e-06,4.11566815033088e-24,-6.83291441053715e-22,3.28838935085412e-07,1.52982240382236e-05,-4.55064673758205e-20,0.000567545799564833,1.23160285553306e-21,-1.35971563144357e-19,6.54372956250368e-05,0.00304426970810881,-9.05555833207281e-18,0.112938762124459,2.45082779292007e-19,0,0,0,0,0,0,0.409500000274608,3.64333119191981e-18,0.570019870991175
0.02,-1.81297257994999e-23,8.72506132391232e-09,4.05906748377533e-07,-1.20742003493449e-21,1.50586544870237e-05,3.26780356421006e-23,-2.70576577915404e-21,1.3021692998751e-06,6.05794374075924e-05,-1.80201060276424e-19,0.00224742461312994,4.87702415073541e-21,-2.67843481168784e-19,0.000128901607462384,0.00599675238984248,-1.78380847546359e-17,0.222472335441146,4.82776128052596e-19,0,0,0,0,0,0,0.409500002174121,3.6433795236766e-18,0.570018975681513
0.03,-6.07266144973201e-23,2.9225121292089e-08,1.35960923530697e-06,-4.04432652808406e-21,5.04398751528304e-05,1.09457059357305e-22,-6.02663361588552e-21,2.90036090213802e-06,0.000134930405552758,-4.01367249097092e-19,0.00500575653185032,1.08627427838551e-20,-3.95657164630048e-19,0.00019041286464121,0.00885837518688157,-2.63503371657651e-17,0.328635115796603,7.13154686994207e-19,0,0,0,0,0,0,0.409500007226124,3.6435094369639e-18,0.570016568983196
0.04,-1.42855746124758e-22,6.87503583449755e-08,3.19839980139945e-06,-9.51403743686549e-21,0.000118656804089008,2.57491217196042e-22,-1.06055196584003e-20,5.1039828409348e-06,0.000237447165335177,-7.06316083213866e-19,0.00880900560534639,1.91159840602644e-20,-5.19454024084915e-19,0.000249990996290684,0.0116300652409066,-3.45950734635363e-17,0.431461499037374,9.36293096829277e-19,0,0,0,0,0,0,0.409500016744008,3.64375988317076e-18,0.5700119287372
0.05,-2.76897151715275e-22,1.33258751723595e-07,6.19945517823815e-06,-1.84410493735399e-20,0.000229992366251689,4.99094972147757e-22,-1.64024627194184e-20,7.89380350661776e-06,0.000367235025033113,-1.09238619098354e-18,0.013623979841704,2.95647196924603e-20,-6.39275470090152e-19,0.000307655931539974,0.0143127496935982,-4.25750515460253e-17,0.530985881010002,1.15226599827025e-18,0,0,0,0,0,0,0.409500031648151,3.64416853631895e-18,0.570004355479375
0.06,-4.74833320957365e-22,2.28516961028954e-07,1.06310515372729e-05,-3.162338312884e-20,0.00039439928647019,8.55866236362481e-22,-2.33779157172272e-20,1.12507905808309e-05,0.000523408564341632,-1.55694377974368e-18,0.0194178312074744,4.21376678000638e-20,-7.55162913202527e-19,0.000363427599518249,0.0169073556866369,-5.0293029311308e-17,0.627242657561029,1.36114803202955e-18,0,0,0,0,0,0,0.409500052228516,3.6447717696576e-18,0.569993172206658
0.07,-7.48253343250242e-22,3.60102319134956e-07,1.67526572039882e-05,-4.98328594617783e-20,0.000621503529031669,1.34869383522209e-21,-3.1492745675682e-20,1.51561110365099e-05,0.00070509163437261,-2.0973826358126e-18,0.0261580556276744,5.67642929098205e-20,-8.67157763978807e-19,0.000417325929354677,0.0194148103617032,-5.77517646574603e-17,0.720266224537,1.56301383881963e-18,0,0,0,0,0,0,0.409500077856009,3.6456046244851e-18,0.569977724143517
0.08,-1.1083570487595e-21,5.3340482510132e-07,2.48150253720715e-05,-7.38153748894538e-20,0.000920607737265777,1.99776497141151e-21,-4.07082337242056e-20,1.95911311378822e-05,0.000911417357654724,-2.71112412448937e-18,0.033812492985786,7.33748059556005e-20,-9.75301432975758e-19,0.000469370850178427,0.0218360408604778,-6.49540154825579e-17,0.810090977784457,1.75793805935293e-18,0,0,0,0,0,0,0.409500106649607,3.64670077224644e-18,0.569957378508846
0.09,-1.56595914947282e-21,7.53629137086497e-07,3.50602868175807e-05,-1.0429117747686e-19,0.00130069467312931,2.82257268899003e-21,-5.09860750977886e-20,2.45374164404668e-05,0.00114152812813346,-3.39561719005383e-18,0.042349327123757,9.19001642783979e-20,-1.07963533075015e-18,0.000519582291118668,0.0241719743246411,-7.19025396846768e-17,0.896751313149944,1.94599533434188e-18,0,0,0,0,0,0,0.40950013510587,3.64809247089577e-18,0.569931524283566
0.1,-2.13149338025561e-21,1.02579656526059e-06,4.7722042613113e-05,-1.41955142626693e-19,0.00177043065679088,3.84192333746247e-21,-6.22883791369892e-20,2.99767317910744e-05,0.00139457561117111,-4.14833835576657e-18,0.0517370858420002,1.12272071626332e-19,-1.18020086785874e-18,0.000567980181304568,0.0264235378958737,-7.86000951618929e-17,0.980281626480003,2.12726030449892e-18,0,0,0,0,0,0,0.409500157697165,3.64981051645821e-18,0.569899571979271
0.11,-2.81501663990669e-21,1.35474706471826e-06,6.30254568419722e-05,-1.87477048869159e-19,0.00233816900621555,5.07394403585047e-21,-7.45776692879333e-20,3.58910413278075e-05,0.00166972074354677,-4.96679172386893e-18,0.0619446408993941,1.34422978154645e-19,-1.27703945485831e-18,0.000614584449865295,0.0285916587158561,-8.50494398122819e-17,1.06071631362118,2.30180761053648e-18,0,0,0,0,0,0,0.409500166444527,3.65188419066988e-18,0.569860953408328
0.12,-3.626213132214e-21,1.74514122839166e-06,8.11873493123372e-05,-2.4150185365178e-19,0.00301195347674947,6.53609013676372e-21,-8.78168831023145e-20,4.22625084800603e-05,0.00196613373345633,-5.84850897558303e-18,0.0729412080132826,1.58286080425705e-19,-1.37019250230562e-18,0.000659415025930019,0.030677263926269,-9.12533315339197e-17,1.13808977042001,2.46971189316702e-18,0,0,0,0,0,0,0.409500150470815,3.65434120552182e-18,0.569815121455922
0.13,-4.57439850701024e-21,2.20146227996334e-06,0.00010241628827143,-3.04649969129204e-19,0.0037995217007046,8.24515269047123e-21,-1.01969372237394e-19,4.90734959685185e-05,0.00228299406051252,-6.79104937111174e-18,0.084696346859475,1.83795321409003e-19,-1.45970142075743e-18,0.000702491838627908,0.0326812806687929,-9.72145282248822e-17,1.21243639272305,2.63104779310297e-18,0,0,0,0,0,0,0.409500095539467,3.65720764548204e-18,0.569761549854576
0.14,-5.66852400122858e-21,2.72801806677916e-06,0.000126912683119684,-3.77517537953011e-19,0.0047083086269433,1.02172659089725e-20,-1.16998902456001e-19,5.63065658051596e-05,0.00261949047574483,-7.79199974963868e-18,0.0971799610722461,2.10885390481157e-19,-1.54560762077052e-18,0.00074383481708813,0.0346046360851084,-1.02935787783245e-16,1.28379057637683,2.78588995105676e-18,0,0,0,0,0,0,0.409499983583863,3.66050790812095e-18,0.569699732961761
0.15,-6.91718057995827e-21,3.32894305276123e-06,0.000154868877124911,-4.60676709061522e-19,0.00574544996046298,1.24679146300689e-20,-1.32869653626531e-19,6.39444792932527e-05,0.00297482100159959,-8.84897452932823e-18,0.110362298244336,2.39491723425906e-19,-1.62795251290164e-18,0.000783463890439853,0.0364482573168959,-1.08419868107085e-16,1.3521867172279,2.93431300774083e-18,0,0,0,0,0,0,0.409499792232007,3.66426464381731e-18,0.569629185541239
0.16,-8.32860307750043e-21,4.00820031132079e-06,0.00018646924013647,-5.54675913469604e-19,0.00691778560198082,1.50119417814347e-20,-1.4954621972295e-19,7.19701970273589e-05,0.00334819293193992,-9.95961570732555e-18,0.12421394992695,2.69550502434116e-19,-1.70677750770758e-18,0.000821398987812248,0.0382130715058361,-1.13669527094476e-16,1.4176592111228,3.07639160386762e-18,0,0,0,0,0,0,0.409499494330947,3.6684986951771e-18,0.569549442548825
0.17,-9.9106743384236e-21,4.76958351827115e-06,0.000221890261299437,-6.6004014005848e-19,0.00823186308751836,1.78635558446886e-20,-1.66993608824788e-19,8.03668788933305e-05,0.00373882283204576,-1.11215928597565e-17,0.13870585162976,3.00998656103776e-19,-1.78212401574509e-18,0.000857660038334482,0.0399000057936095,-1.18687522643496e-16,1.48024245390808,3.21220038014958e-18,0,0,0,0,0,0,0.409499057475081,3.67322903675492e-18,0.569460058923297
0.18,-1.16709293586195e-20,5.61671894474062e-06,0.000261300641768769,-7.77271211365537e-19,0.00969394102798618,2.10363383194646e-20,-1.85177243117146e-19,8.91178840683119e-05,0.00414593653861383,-1.23326031417278e-17,0.153809282820901,3.33773859439999e-19,-1.85403344757093e-18,0.000892266971135723,0.0415099873218967,-1.2347661265222e-16,1.53997084143027,3.34181397729914e-18,0,0,0,0,0,0,0.409498443542212,3.67847271562589e-18,0.56936060938317
0.19,-1.36165594263587e-20,6.55306745008539e-06,0.000304861387423475,-9.06848059374131e-19,0.0113099925487686,2.45432511874838e-20,-2.0406295889069e-19,9.82067710207389e-05,0.00456876915975767,-1.35903712873269e-17,0.169495866926977,3.67814533855025e-19,-1.92254721374189e-18,0.000925239715345141,0.0430439432323782,-1.28039555018723e-16,1.59687876953593,3.46530703602873e-18,0,0,0,0,0,0,0.409497608240966,3.68424479331912e-18,0.56925068823009
0.2,-1.57544162633463e-20,7.5819264748025e-06,0.000352725901580785,-1.0492270013034e-18,0.0130857087293081,2.83966443766249e-20,-2.23617006541657e-19,0.000107617297510339,0.00500656507500764,-1.48926496096218e-17,0.185737571333053,4.03059847168216e-19,-1.98770672481472e-18,0.000956598200091904,0.0445028006667346,-1.32379107641083e-16,1.65100063407158,3.58275419705081e-18,0,0,0,0,0,0,0.409496500672941,3.6905582895861e-18,0.569129909159561
0.21,-1.80910161657776e-20,8.70643203344267e-06,0.000405040077710315,-1.20484201539805e-18,0.0150265020426905,3.26082632249961e-20,-2.43806050571847e-19,0.000117333420588132,0.00545857793531088,-1.62372180006616e-17,0.202506707382664,4.39449713606058e-19,-2.0495533913462e-18,0.00098636235450518,0.0458874867666464,-1.36498028417373e-16,1.70237083088379,3.69423010107779e-18,0,0,0,0,0,0,0.409495062912698,3.69742412844507e-18,0.568997905079737
0.22,-2.06325441453935e-20,9.92956070752334e-06,0.000461942392148236,-1.37410501671821e-18,0.0171375097952289,3.71892559450061e-20,-2.64597169588632e-19,0.000127339296596428,0.00592407066303135,-1.7621883931476e-17,0.219775930377806,4.76924793802163e-19,-2.10812862389308e-18,0.00101455210771414,0.0471989286737942,-1.40399075245672e-16,1.75102375581909,3.79980938882213e-18,0,0,0,0,0,0,0.409493229608484,3.7048510869101e-18,0.568854327938936
0.23,-2.33848580705369e-20,1.12541316384415e-05,0.000523563996811444,-1.55740613292919e-18,0.019423597566049,4.21501810874353e-20,-2.85957856304949e-19,0.000137619281168831,0.00640231545194982,-1.90444824520753e-17,0.237518239578944,5.15426494797266e-19,-2.16347383301214e-18,0.00104118738884795,0.0484380535298586,-1.44085006024053e-16,1.79699380472402,3.89956670099627e-18,0,0,0,0,0,0,0.409490927606358,3.71284574678461e-18,0.568698848562545
0.24,-2.63534928072076e-20,1.26828085203865e-05,0.000590028811911727,-1.75511398009131e-18,0.0218893626466732,4.75010150055069e-20,-3.07856017539305e-19,0.000148157929230234,0.00689259376726385,-2.05028761914509e-17,0.255706978205007,5.54896970039229e-19,-2.21563042926015e-18,0.00106628812703578,0.0496057884765201,-1.47558578650594e-16,1.84031537344513,3.99357667831263e-18,0,0,0,0,0,0,0.409488075600153,3.7214124498722e-18,0.568531156499865
0.25,-2.95436643601183e-20,1.42181015932533e-05,0.000661453618669931,-1.9675759384497e-18,0.0245391374806059,5.32511593189585e-20,-3.30259974215771e-19,0.000158939994996824,0.00739419634558782,-2.19949553575746e-17,0.274315833433389,5.95279119383034e-19,-2.26463982319386e-18,0.00108987425140679,0.0507030606554593,-1.50822551023369e-16,1.88102285782895,4.08191396148366e-18,0,0,0,0,0,0,0.409484583809545,3.73055325693225e-18,0.568350959881455
0.26,-3.29602740137504e-20,1.5862369635555e-05,0.00073794815203013,-2.19511842822414e-18,0.0273769931029173,5.94094483781133e-20,-3.5313846136399e-19,0.000169950431976078,0.0079064231949529,-2.35186377373993e-17,0.29331883639995,6.36516589090792e-19,-2.31054342537005e-18,0.00111196569109016,0.0517307972083567,-1.53879681040455e-16,1.91915065372204,4.16465319122181e-18,0,0,0,0,0,0,0.409480353688244,3.74026791068499e-18,0.568157985287387
0.27,-3.66079124734096e-20,1.76178219573361e-05,0.000819615193373795,-2.43804718539881e-18,0.030406742579829,6.59841567279509e-20,-3.7646062811917e-19,0.000181174392966765,0.00842858359480708,-2.50718686968584e-17,0.312690362199016,6.78553771831736e-19,-2.35338264634548e-18,0.00113258237521506,0.0526899252768929,-1.56732726599928e-16,1.95473315697094,4.2418690082395e-18,0,0,0,0,0,0,0.409475277664195,3.75055380314924e-18,0.567951977626805
0.28,-4.04908640062812e-20,1.94865203930852e-05,0.00090655066323396,-2.69664753751214e-18,0.0336319444482977,7.2983006572179e-20,-4.00196037722086e-19,0.000192597230058948,0.00895999609601516,-2.66526211808661e-17,0.332405129883377,7.21335806682222e-19,-2.39319889667693e-18,0.00115174423291065,0.0535813720027484,-1.59384445599864e-16,1.98780476342219,4.31363605324917e-18,0,0,0,0,0,0,0.40946923891344,3.76140594757652e-18,0.567732700029038
0.29,-4.46131105824865e-20,2.14703812946478e-05,0.000998843714009392,-2.97118467944661e-18,0.0370559061556007,8.04131752373046e-20,-4.24314667519084e-19,0.000204204494633978,0.00949998852085871,-2.82588957133174e-17,0.352438202464289,7.64808579125734e-19,-2.43003358692115e-18,0.00116947119330611,0.0544060645276039,-1.61837595938337e-16,2.01839986892233,4.38002896696327e-18,0,0,0,0,0,0,0.409462111169155,3.7728169552271e-18,0.56749993374645
0.3,-4.89783360161378e-20,2.35711775241396e-05,0.00109657682267876,-3.26190394921855e-18,0.0406816874989201,8.8281302636705e-20,-4.48786908962075e-19,0.0002159819373645,0.0100478979630362,-2.98887203970882e-17,0.372764986911475,8.08918721052877e-19,-2.46392812763492e-18,0.00118578318553059,0.0551649299931397,-1.64094935513425e-16,2.0465528693179,4.44112239009423e-18,0,0,0,0,0,0,0.409453758567191,3.78477701721655e-18,0.567253478069094
0.31,-5.35899301063945e-20,2.57905404468591e-05,0.00119982588351479,-3.56903110376796e-18,0.0445121040649275,9.65934987346992e-20,-4.73583567608537e-19,0.00022791550821445,0.0106030707876627,-3.15401509140349e-17,0.393361234153121,8.53613610761383e-19,-2.494923929375e-18,0.00120070013871327,0.0558588955410366,-1.66159222223204e-16,2.07229816045546,4.49699096335449e-18,0,0,0,0,0,0,0.409444035529281,3.79727389164613e-18,0.566993150251117
0.32,-5.84509927785186e-20,2.81299619242006e-05,0.00130866030079846,-3.8927725947483e-18,0.0485497306693687,1.05355351010619e-19,-4.98675863121518e-19,0.000239991356439057,0.0111648626312704,-3.32112705249948e-17,0.414203039075879,8.98841372956106e-19,-2.52306240269816e-18,0.00121424198198332,0.0564888883129751,-1.68033213965748e-16,2.09567013818153,4.54770932745649e-18,0,0,0,0,0,0,0.409432786684938,3.81029289621521e-18,0.566718785448764
0.33,-6.35643382249303e-20,3.05907963065673e-05,0.00142314308153314,-4.2333158443163e-18,0.0527969047966482,1.14571931922881e-19,-5.24035429269633e-19,0.000252195830584839,0.011732638401808,-3.4900190069786e-17,0.435266840524868,9.44550878749026e-19,-2.54838495816116e-18,0.00122642864446991,0.0570558354506357,-1.69719668639134e-16,2.11670319834267,4.59335212311267e-18,0,0,0,0,0,0,0.409419846832896,3.82381690650033e-18,0.566430236669689
0.34,-6.89324990462639e-20,3.31742624262839e-05,0.00154333092815878,-4.59082952092179e-18,0.0572557300394145,1.24247806373057e-19,-5.49634313927064e-19,0.000264515478489607,0.0123057722786411,-3.66050479672072e-17,0.456529421303671,9.90691745659248e-19,-2.57093300632078e-18,0.0012372800553022,0.0575606640956989,-1.71221344141437e-16,2.13543173678542,4.63399399103546e-18,0,0,0,0,0,0,0.409405040942806,3.83782636007181e-18,0.566127374733178
0.35,-7.45577303924233e-20,3.58814455905096e-05,0.00166927433126606,-4.96546381509748e-18,0.0619280795381436,1.34387039169944e-19,-5.7544497907356e-19,0.000276937047282466,0.0128836477125522,-3.83240102150381e-17,0.477967908174337,1.037214337613e-18,-2.59074795773378e-18,0.00124681614360937,0.0580043013898455,-1.72540998370734e-16,2.15189014935632,4.66970957193731e-18,0,0,0,0,0,0,0.409388184197769,3.85229926660621e-18,0.565810088240738
0.36,-8.04420141036379e-20,3.87132995741513e-05,0.00180101766231059,-5.35735071524878e-18,0.0668155994207248,1.44993202493639e-19,-6.01440300794439e-19,0.000289447483383808,0.0134656574257405,-4.00552703900388e-17,0.49955977185738,1.08406976494363e-18,-2.60787122295692e-18,0.00125505683852058,0.0583876744747558,-1.73681389225101e-16,2.16611283190192,4.70057350653066e-18,0,0,0,0,0,0,0.409369082078125,3.86721122413985e-18,0.565478283556421
0.37,-8.6587062851518e-20,4.16706486127762e-05,0.00193859926632703,-5.76660428344363e-18,0.0719197122420448,1.56069383359607e-19,-6.27593569280588e-19,0.000302033932505321,0.0140512034118221,-4.17970496479505e-17,0.52128282703178,1.13120988439163e-18,-2.62234421254698e-18,0.001262022069165,0.0587117104921104,-1.74645274602612e-16,2.17813418026875,4.72666043552793e-18,0,0,0,0,0,0,0.409347530486806,3.88253544159565e-18,0.565131884796074
0.38,-9.29943242801104e-20,4.47541893955248e-05,0.00208205155464329,-6.19332093120224e-18,0.0772416204235722,1.67618191082754e-19,-6.53878488828458e-19,0.000314683739649983,0.0146396969358298,-4.35475967234951e-17,0.543115232334981,1.17858729910458e-18,-2.63420833706071e-18,0.0012677317646718,0.05897733658359,-1.75435412401345e-16,2.18798859030337,4.74804499964158e-18,0,0,0,0,0,0,0.409323315916398,3.89824276770286e-18,0.564770833824633
0.39,-9.96649851469545e-20,4.79644930580238e-05,0.00223140109759472,-6.63757969528698e-18,0.0827823096929425,1.79641764741497e-19,-6.8026917784007e-19,0.000327384449112062,0.0152305585342133,-4.53051879303751e-17,0.565035490362895,1.22615535863722e-18,-2.6435050070549e-18,0.00127220585417014,0.059185479890875,-1.76054560519374e-16,2.19571045785231,4.76480183958404e-18,0,0,0,0,0,0,0.409296215657959,3.9143017264154e-18,0.564395090260428
0.4,-1.06599975464138e-19,5.13020071752991e-05,0.00238666871723821,-7.09944251349214e-18,0.0885425525235428,1.92141780641836e-19,-7.06740168823013e-19,0.000340123804477121,0.015823218014839,-4.70681271612739e-17,0.587022447669897,1.2738681589514e-18,-2.6502756330863e-18,0.0012754642667892,0.0593370675556461,-1.76505476854777e-16,2.20133417876211,4.77700559606774e-18,0,0,0,0,0,0,0.409265998051483,3.93067855892083e-18,0.564004631485345
0.41,-1.13799972639351e-19,5.47670577546888e-05,0.00254786958006642,-7.57895450043374e-18,0.0945229115740959,2.05119459781425e-19,-7.33266408390443e-19,0.000352889748622013,0.0164171144569901,-4.88347458878555e-17,0.609055294768828,1.32168054241609e-18,-2.65456162571168e-18,0.00127752693165815,0.0594330267195837,-1.76790919305628e-16,2.20489414887933,4.78473090980513e-18,0,0,0,0,0,0,0.409232422777777,3.94733727231685e-18,0.563599452659612
0.42,-1.21265405616946e-19,5.83598512287558e-05,0.00271501328972194,-8.07614422333934e-18,0.100723743128246,2.18575575313645e-19,-7.59823257261083e-19,0.000365670423714881,0.0170116962113668,-5.06034031607648e-17,0.631113566130996,1.36954809780739e-18,-2.65640439548781e-18,0.00127841377790616,0.0594742845243685,-1.76913645770004e-16,2.2064247640505,4.78805242150865e-18,0,0,0,0,0,0,0.409195241191405,3.96423969501718e-18,0.563179566739813
0.43,-1.28996459018986e-19,6.2080476448201e-05,0.00288810397971141,-8.59102397783788e-18,0.107145200534142,2.32510460011672e-19,-7.86386490259224e-19,0.000378454171215163,0.0176064209000859,-5.23724856096275e-17,0.653177140186173,1.41742716030852e-18,-2.65584535297146e-18,0.00127814473466238,0.059461768111681,-1.7687641414598e-16,2.20596042012217,4.78704477189073e-18,0,0,0,0,0,0,0.409154196694208,3.98134553893151e-18,0.562745004498686
0.44,-1.3699307728631e-19,6.59289066747761e-05,0.00306714040611975,-9.12359006374943e-18,0.113787237644023,2.46924013732549e-19,-8.12932296314726e-19,0.000391229531873587,0.0182007554166811,-5.414040744305e-17,0.675226239322596,1.46527481150984e-18,-2.65292590871939e-18,0.00127673973105599,0.0593964046232017,-1.76681982331632e-16,2.20353551294088,4.78178260166381e-18,0,0,0,0,0,0,0.409109025148784,3.99861246844708e-18,0.562295814545132
0.45,-1.45254968819578e-19,6.99050015741965e-05,0.0032521160403243,-9.67382306087504e-18,0.120649612253802,2.6181571088126e-19,-8.39437278463015e-19,0.000403985245732172,0.0187941759261029,-5.59056104486193e-17,0.697241429886969,1.51304887940881e-18,-2.64768747328836e-18,0.00127421869621617,0.0592791212006113,-1.76333108225036e-16,2.19918443835317,4.77234055154033e-18,0,0,0,0,0,0,0.409059455331202,4.01599617622011e-18,0.561832063342783
0.46,-1.53781610120337e-19,7.40085092090543e-05,0.00344301916170897,-1.02416881047865e-17,0.127731889542655,2.77184607874799e-19,-8.65878453845086e-19,0.000416710252124229,0.0193861678647186,-5.76665639929035e-17,0.71920362218446,1.56070793841003e-18,-2.64017145723516e-18,0.00127060155927207,0.0591108449855902,-1.75832549724268e-16,2.19294159220558,4.75879326223273e-18,0,0,0,0,0,0,0.409005209422073,4.03345046576552e-18,0.561353835225396
0.47,-1.62572249932069e-19,7.82390680317312e-05,0.00363983295037844,-1.08271351626163e-17,0.135033445512597,2.9302935060624e-19,-8.922332537075e-19,0.000429393689674363,0.0199762259403122,-5.94217650214511e-17,0.741094070478703,1.60821130932522e-18,-2.63041927111654e-18,0.00126590824935287,0.058892503119819,-1.75183064727404e-16,2.18484137034467,4.74121537445345e-18,0,0,0,0,0,0,0.408946003534996,4.05092734081208e-18,0.560861232407289
0.48,-1.71625913381251e-19,8.25962088773113e-05,0.00384253557987232,-1.14300993088472e-17,0.142553470428074,3.09348181908812e-19,-9.18479523402388e-19,0.000442024896298467,0.0205638541320847,-6.11697380587915e-17,0.762894372991798,1.65551905937324e-18,-2.61847232548926e-18,0.00126015869558773,0.0586250227449783,-1.7438741113252e-16,2.17491816861697,4.71968152891493e-18,0,0,0,0,0,0,0.408881548281256,4.06837710136688e-18,0.560354374986941
0.49,-1.80941406118406e-19,8.70793569564942e-05,0.0040511003098793,-1.20505010011022e-17,0.150290972255546,3.26138949019966e-19,-9.44595522387446e-19,0.000454593409203728,0.0211485656906538,-6.2909035208435e-17,0.784586471904308,1.70259200218003e-18,-2.60437203091011e-18,0.00125337282710583,0.0583093310027487,-1.73448346837691e-16,2.16320638286902,4.6942663663296e-18,0,0,0,0,0,0,0.408811549369526,4.08574844640969e-18,0.55983340094186
0.5,-1.90517318459166e-19,9.16878338485078e-05,0.00426549557895134,-1.26882463559342e-17,0.158244780103071,3.43399111045451e-19,-9.7055992422594e-19,0.000467088964888625,0.021729883138054,-6.46382361528724e-17,0.806152653355266,1.74939169777871e-18,-2.58815979793584e-18,0.00124557057303633,0.0579463550348106,-1.72368629740993e-16,2.14974040894738,4.6650445274099e-18,0,0,0,0,0,0,0.408735708239217,4.10298858311181e-18,0.55929846611277
0.51,-2.00352029525321e-19,9.64208594940213e-05,0.00448568509721783,-1.33432274246162e-17,0.166413547659887,3.6112574642338e-19,-9.96351816586702e-19,0.000479501499142927,0.0223073382677366,-6.63559481535755e-17,0.827575547442165,1.79588045260949e-18,-2.56987703712322e-18,0.0012367718625084,0.0575370219828448,-1.71151017740503e-16,2.13455464269857,4.63209065286828e-18,0,0,0,0,0,0,0.408653722725958,4.12004334244778e-18,0.558749744175154
0.52,-2.10443711385877e-19,0.000101277554188058,0.00471162793909975,-1.40153224689305e-17,0.174795756636003,3.79315560388305e-19,-1.02195070124413e-18,0.000491821147047695,0.0228804721445697,-6.80608060509968e-17,0.848838128220969,1.84202131951971e-18,-2.54956515902902e-18,0.00122699662465122,0.0570822589885316,-1.69798268734295e-16,2.11768347996915,4.59547938341716e-18,0,0,0,0,0,0,0.408565287757602,4.13685730104059e-18,0.558187426596151
0.53,-2.20790333198114e-19,0.000106256940572908,0.00494327863602385,-1.47043962369589e-17,0.183389720201777,3.97964892435287e-19,-1.0473364940782e-18,0.000504038242975284,0.0234488351048383,-6.97514722645693e-17,0.869923713706102,1.88777809776385e-18,-2.52726557421e-18,0.00121626478859393,0.0565829931935516,-1.68313140620447e-16,2.09916131660566,4.555285359769e-18,0,0,0,0,0,0,0.408470096079007,4.15337390905182e-18,0.557611722574844
0.54,-2.31389665348637e-19,0.000111357945631042,0.00518058726913682,-1.54103002388727e-17,0.192193586427505,4.17069723783966e-19,-1.07248952507444e-18,0.000516143320589338,0.0240119867562441,-7.14266367927071e-17,0.890815965870457,1.93311533300348e-18,-2.50301969322294e-18,0.00120459628346573,0.0560401517395855,-1.66698391297033e-16,2.07902254845464,4.51158322263623e-18,0,0,0,0,0,0,0.408367839003712,4.16953562389862e-18,0.557022858963951
0.55,-2.42239283594435e-19,0.000116579402678022,0.00542349956201943,-1.6132873022722e-17,0.201205341723003,4.36625684842636e-19,-1.09739053832395e-18,0.000528127112844793,0.0245694959779057,-7.3085017212805e-17,0.911498890645391,1.97799831730733e-18,-2.4768689266246e-18,0.00119201103839577,0.0554546617683138,-1.6495677866213e-16,2.05730157136264,4.46444761273128e-18,0,0,0,0,0,0,0.40825820719054,4.18528404954887e-18,0.556421080170978
0.56,-2.53336573203937e-19,0.000121920053355419,0.00567195697340074,-1.68719404502256e-17,0.210422814277196,4.56628062672312e-19,-1.12202069202342e-18,0.000539980551987878,0.0251209409203583,-7.47253586812384e-17,0.931956837920728,2.02239308915124e-18,-2.44885468497174e-18,0.00117852898251323,0.054827450421417,-1.63091060613814e-16,2.03403278117619,4.41395317076659e-18,0,0,0,0,0,0,0.408140891443,4.20056008111408e-18,0.555806648036926
0.57,-2.64678733098066e-19,0.00012737854962372,0.00592589678987225,-1.76273159725614e-17,0.219843677497696,4.77071808450803e-19,-1.14636155847506e-18,0.000551694769556113,0.0256659090055542,-7.63464339333635e-17,0.952174501544755,2.06626643341817e-18,-2.41901837882114e-18,0.00116417004494726,0.0541594448405757,-1.6110399505016e-16,2.00925057374185,4.36017453745461e-18,0,0,0,0,0,0,0.408015583529278,4.21530405442842e-18,0.555179841690689
0.58,-2.76262779991293e-19,0.000132953455755245,0.00618525221860204,-1.83988009061553e-17,0.229465453450392,4.97951544936785e-19,-1.1703951240867e-18,0.000563261096378309,0.0262039969268623,-7.79470432835174e-17,0.972136919324227,2.10958588139821e-18,-2.38740141872955e-18,0.00114895415482705,0.0534515721674704,-1.58998339869244e-16,1.98298934490615,4.30318635350777e-18,0,0,0,0,0,0,0.407881977020476,4.22945590026964e-18,0.554540957377359
0.59,-2.88085552532699e-19,0.000138643250327057,0.006449952480049,-1.91861847084719e-17,0.239285516299032,5.19261573933868e-19,-1.19410378937171e-18,0.00057467106257457,0.0267348106490683,-7.95260146250177e-17,0.991829473024362,2.15231971078858e-18,-2.35404521525375e-18,0.00113290124128176,0.0527047595437818,-1.56776852969142e-16,1.95528349051563,4.24306325963851e-18,0,0,0,0,0,0,0.407739768144665,4.24295530284589e-18,0.55389030825873
0.6,-3.00143715447023e-19,0.000144446328213877,0.00671992290067692,-1.99892452538035e-17,0.249301095744809,5.40995883754671e-19,-1.21747036894902e-18,0.000585916397556291,0.0272579654083749,-8.10822034301632e-17,1.01123788836885,2.19443694569362e-18,-2.31899117895051e-18,0.00111603123344055,0.0519199341111903,-1.5444229224793e-16,1.92616740641685,4.17987989655927e-18,0,0,0,0,0,0,0.407588656654193,4.25574186214044e-18,0.553228224184365
0.61,-3.12433763675724e-19,0.000150361002580999,0.00699508500566874,-2.08077491090605e-17,0.259509280465946,5.63148156684893e-19,-1.24047809154315e-18,0.000596989030026159,0.0277730857124014,-8.26144927502329e-17,1.03034823503983,2.23590735662478e-18,-2.28228072037659e-18,0.00109836406043261,0.0510980230113766,-1.51997415603684e-16,1.89567548845634,4.11371090498249e-18,0,0,0,0,0,0,0.407428346703631,4.26775525967445e-18,0.552555051431731
0.62,-3.24952026518031e-19,0.000156385506877198,0.00727535661164064,-2.16414518095611e-17,0.269907021557278,5.85711776447382e-19,-1.26311059998417e-18,0.000607881087978151,0.028279805340184,-8.4121793215487e-17,1.04914692667792,2.27670146050065e-18,-2.24395525008876e-18,0.00107991965138708,0.0502399533860211,-1.49444980934479e-16,1.86384213248065,4.0446309256206e-18,0,0,0,0,0,0,0.407258547735605,4.2789354272179e-18,0.551871152413991
0.63,-3.37694671772004e-19,0.000162517996827644,0.00756065191935629,-2.24900981348207e-17,0.280491135969841,6.08679835666207e-19,-1.28535195120773e-18,0.000618584898697539,0.0287777673421756,-8.56030430351662e-17,1.06762072088221,2.31679052064695e-18,-2.20405617864378e-18,0.00106071793543316,0.0493466523768045,-1.46787746138392e-16,1.83070173433631,3.97271459918605e-18,0,0,0,0,0,0,0.407078975371711,4.28922271794792e-18,0.551176905354197
0.64,-3.50657709875586e-19,0.000168756552426818,0.00785088160644093,-2.33534223843423e-17,0.291258309950451,6.32045143330731e-19,-1.30718661625505e-18,0.000629092988760883,0.0292666240402461,-8.70572079974921e-17,1.08575671921024,2.3561465467965e-18,-2.16262491659842e-18,0.00104077884169999,0.0484190471254072,-1.44028469113498e-16,1.79628868986988,3.89803656639128e-18,0,0,0,0,0,0,0.406889352305637,4.29855807952598e-18,0.550472703924754
0.65,-3.63836998047662e-19,0.000175099179931424,0.00814595292009561,-2.42311486534057e-17,0.302205102481294,6.5580023225968e-19,-1.32859948027289e-18,0.000639398084036039,0.0297460370276821,-8.84832814696671e-17,1.10354236717802,2.39474229508928e-18,-2.11970287450945e-18,0.00102012229931676,0.0474580647735099,-1.41169907757873e-16,1.7606373949279,3.82067146794871e-18,0,0,0,0,0,0,0.406689409195513,4.30688322853807e-18,0.549758956851177
0.66,-3.77228244429109e-19,0.000181543813853299,0.00844576976981131,-2.5122991108858e-17,0.313327948719508,6.79937366565217e-19,-1.34957584251361e-18,0.000649493109682149,0.0302156771691869,-8.98802843978741e-17,1.12096545426004,2.43255126807236e-18,-2.07533146293364e-18,0.000998768237412622,0.0464646324627931,-1.38214819969594e-16,1.72378224535691,3.74069394457079e-18,0,0,0,0,0,0,0.406478885552511,4.3141408257164e-18,0.549036087479352
0.67,-3.90827012223858e-19,0.000188088318952328,0.00875023282008315,-2.60286542649029e-17,0.324623163436768,7.04448549117009e-19,-1.37010141633513e-18,0.000659371190149652,0.0306752246008808,-9.1247265307277e-17,1.13801411388922,2.46954771469995e-18,-2.02955209242775e-18,0.000976736585116755,0.0454396773349374,-1.35165963646735e-16,1.68575763700345,3.65817863696997e-18,0,0,0,0,0,0,0.406257530622621,4.32027465133846e-18,0.548304533305636
0.68,-4.04628723839947e-19,0.000194730492229358,0.00905923958312452,-2.69478332588904e-17,0.33608694445887,7.29325529006301e-19,-1.39016232920092e-18,0.000669025649180276,0.0311243687303008,-9.25833003020205e-17,1.15467682345698,2.50570663033339e-18,-1.98240617354855e-18,0.000954047271558325,0.0443841265316233,-1.32026096687373e-16,1.64659796571406,3.57320018585867e-18,0,0,0,0,0,0,0.406025104258524,4.32522978017808e-18,0.547564745469376
0.69,-4.18628665030576e-19,0.00020146806491911,0.00937268451158128,-2.78802141271071e-17,0.347715376105318,7.5455980900999e-19,-1.40974512268004e-18,0.00067845000980704,0.0315628082364007,-9.38874930652297e-17,1.1709424043132,2.54100375674113e-18,-1.93393511685281e-18,0.000930720225866501,0.0432989071945314,-1.28797976989584e-16,1.6063376273353,3.48583323194934e-18,0,0,0,0,0,0,0.405781377778442,4.32895275536505e-18,0.546817188207546
0.7,-4.32821989035163e-19,0.000208298704483091,0.00969045909124588,-2.88254740805659e-17,0.359504432628906,7.80142653054689e-19,-1.42883675244711e-18,0.000687637994354258,0.0319902510695511,-9.51589748590109e-17,1.18680002176621,2.57541558209876e-18,-1.88418033289729e-18,0.000906775377170451,0.0421849464653422,-1.25484362451443e-16,1.56501101771369,3.39615241595441e-18,0,0,0,0,0,0,0.405526134808865,4.33139176049458e-18,0.546062338271467
0.71,-4.472037207204e-19,0.000215220016602506,0.0100124519337716,-2.97832817807952e-17,0.371449981655303,8.06065093680806e-19,-1.44742458828231e-18,0.000696583524437533,0.0324064144515395,-9.6396904524451e-17,1.20223918508282,2.60891934098898e-18,-1.83318323223876e-18,0.000882232654599342,0.0410431714857362,-1.22088010971026e-16,1.52265253269579,3.30423237858632e-18,0,0,0,0,0,0,0.405259172108006,4.33249678931539e-18,0.545300684305718
0.72,-4.6176876072131e-19,0.000222229547171174,0.0103385488693867,-3.07532976156297e-17,0.383547787622641,8.3231793950661e-19,-1.4654964140714e-18,0.000705280720963759,0.0328110248755701,-9.76004684816175e-17,1.2172497474883,2.64149301440162e-18,-1.78098522543399e-18,0.000857111987282346,0.0398745093973942,-1.1861168044641e-16,1.47929656812814,3.21014776055752e-18,0,0,0,0,0,0,0.40498030036691,4.33221981231693e-18,0.544532726189589
0.73,-4.765118895823e-19,0.000229324784288441,0.0106686330396084,-3.17351739749992e-17,0.395793515221094,8.58891782692302e-19,-1.48304042780569e-18,0.000713723904131124,0.0332038181062639,-9.87688807295587e-17,1.23182190616637,2.67311532973363e-18,-1.72762772303975e-18,0.000831433304348629,0.0386798873419965,-1.1505812877567e-16,1.43497751985728,3.11397320258044e-18,0,0,0,0,0,0,0.404689344985125,4.33051493953009e-18,0.543758974341632
0.74,-4.91427771898219e-19,0.000236503160252089,0.0110025849899574,-3.27285555267192e-17,0.408182732832467,8.85777006404093e-19,-1.50004524158209e-18,0.000721907593429106,0.0335845391796587,-9.9901382846304e-17,1.24594620225925,2.70376576078911e-18,-1.6731521356128e-18,0.000805216534927361,0.0374602324612238,-1.11430113856881e-16,1.38972978372976,3.01578334536751e-18,0,0,0,0,0,0,0.404386146817916,4.32733857885503e-18,0.542979948988055
0.75,-5.06510960455412e-19,0.000243762053551251,0.0113402827626719,-3.37330794922803e-17,0.420710915969779,9.12963792278266e-19,-1.51649988160303e-18,0.000729826507638476,0.0339529424032094,-1.00997243988863e-16,1.2596135208676,2.73342452777924e-18,-1.6175998737099e-18,0.000778481608147709,0.0362164718967566,-1.07730393588121e-16,1.34358775559211,2.91565282963119e-18,0,0,0,0,0,0,0.404070562892056,4.32264958923127e-18,0.542196179395955
0.76,-5.21755900372777e-19,0.000251098790859326,0.0116816019894216,-3.47483759226381e-17,0.43337345071685,9.40442127885254e-19,-1.53239378817655e-18,0.000737475564831296,0.0343087913557872,-1.02055760893227e-16,1.27281509105055,2.76207259732236e-18,-1.56101234788783e-18,0.000751248453138842,0.0349495327902756,-1.03961725867464e-16,1.29658583129089,2.8136562960839e-18,0,0,0,0,0,0,0.403742467087278,4.31640942797212e-18,0.541408203072561
0.77,-5.37156933242819e-19,0.00025851064902689,0.0120264159840219,-3.57740679740031e-17,0.44616563716788,9.68201814193707e-19,-1.54771681571625e-18,0.00074484988237092,0.0346518588876804,-1.03076257874366e-16,1.2855424858257,2.78969168244392e-18,-1.50343096870336e-18,0.00072353699902993,0.0336603422834611,-1.00126868592986e-16,1.24875840667263,2.70986838543808e-18,0,0,0,0,0,0,0.403401750780604,4.30858229159559e-18,0.540616564931897
0.78,-5.52708301272708e-19,0.000265994857074606,0.0123745958351484,-3.68097721836302e-17,0.45908269286704,9.96232473034568e-19,-1.56245923274127e-18,0.000751944776911992,0.0349819271205942,-1.04058086826234e-16,1.2977876221691,2.8162642425765e-18,-1.44489714671324e-18,0.000695367174950139,0.0323498275179938,-9.62285796627637e-17,1.20013987758387,2.60436373840618e-18,0,0,0,0,0,0,0.40304832345083,4.29913524949846e-18,0.539821816430465
0.79,-5.68404151425333e-19,0.000273548598186144,0.0127260104990508,-3.7855098745609e-17,0.472119756248054,1.02452355456514e-18,-1.57661172187635e-18,0.00075875576440045,0.0352987874476504,-1.05000627221763e-16,1.30954276101529,2.8417734835598e-18,-1.38545229247425e-18,0.000666758910028641,0.0310189156355543,-9.22696169748725e-17,1.15076463987117,2.49721699570063e-18,0,0,0,0,0,0,0.402682113240577,4.2880383698393e-18,0.539024514673763
0.8,-5.84238539560358e-19,0.000281169011701087,0.0130805268922669,-3.89096517866531e-17,0.485271890073781,1.05306434473316e-18,-1.59016537985178e-18,0.000765278560073523,0.0356022405333877,-1.05903286112866e-16,1.32080050725727,2.86620335764064e-18,-1.32513781654315e-18,0.000637732133394602,0.029668533777823,-8.82527384273884e-17,1.10066708938106,2.38850279803387e-18,0,0,0,0,0,0,0.402303067473461,4.27526483701894e-18,0.538225221495649
0.81,-6.00205434575277e-19,0.000288853195107848,0.0134380099843372,-3.99730296418902e-17,0.498534084875806,1.08184397274086e-18,-1.60311171750343e-18,0.000771509078459731,0.0358920963137615,-1.06765498130439e-16,1.33155380974648,2.88953856347298e-18,-1.26399512947671e-18,0.000608306774177192,0.0282996090864807,-8.41807019183872e-17,1.04988162196008,2.27829578611833e-18,0,0,0,0,0,0,0.401911153124056,4.26079106017422e-18,0.537424502512734
0.82,-6.16298722546473e-19,0.000296598206036581,0.0137983228905186,-4.1044825130652e-17,0.511901262394017,1.11085141850906e-18,-1.61544265977272e-18,0.000777443433378886,0.0361681739961442,-1.07586725484356e-16,1.34179596129285,2.91176454611789e-18,-1.2020656418317e-18,0.000578502761505579,0.0269130687032077,-8.00562653459448e-17,0.998442633454793,2.16667060066647e-18,0,0,0,0,0,0,0.401506357238507,4.24459677213202e-18,0.536622926156206
0.83,-6.32512210870269e-19,0.000304401064252096,0.0141613269644992,-4.21246258322637e-17,0.525368279016197,1.14007552014122e-18,-1.62715054570665e-18,0.000783077937942092,0.0364303020593248,-1.08366457963473e-16,1.35152059866478,2.93286749704357e-18,-1.13939076416489e-18,0.000548340024508931,0.0255098397696847,-7.58821866081368e-17,0.946384519711723,2.05370188239071e-18,0,0,0,0,0,0,0.40108868730381,4.22666511830598e-18,0.535821062683616
0.84,-6.48839632403985e-19,0.000312258753646768,0.0145268818911117,-4.32120143618339e-17,0.538929929217603,1.16950498138751e-18,-1.6382281284578e-18,0.000788409104551745,0.0366783182535093,-1.09104212935628e-16,1.36072170258912,2.95283435412533e-18,-1.07601190703304e-18,0.000517838492316418,0.0240908494275924,-7.16612236030395e-17,0.89374167657742,1.9394642720035e-18,0,0,0,0,0,0,0.400658171563947,4.20698273505727e-18,0.535019483173354
0.85,-6.65274649606998e-19,0.000320168224233454,0.014894845779048,-4.43065686460447e-17,0.552580949000554,1.19912837910892e-18,-1.64866857528429e-18,0.000793433644901532,0.0369120696003204,-1.09799535347637e-16,1.36939359775118,2.97165280164564e-18,-1.01197048099291e-18,0.000487018094057207,0.022657024818611,-6.73961342287284e-17,0.840548499898427,1.82403241021727e-18,0,0,0,0,0,0,0.400214859281299,4.1855398170836e-18,0.534218758504673
0.86,-6.81810858681789e-19,0.000328126394138405,0.0152650752535735,-4.54078621989411e-17,0.566316019334014,1.22893417074125e-18,-1.65846546754982e-18,0.000798148469976431,0.0371314123927975,-1.10451997725298e-16,1.37753095279476,2.98931127029406e-18,-9.47307896601285e-19,0.000455898758860467,0.0212092930844213,-6.30896763832794e-17,0.786839385521285,1.70748093774446e-18,0,0,0,0,0,0,0.399758820941913,4.16233017344687e-18,0.533419458326249
0.87,-6.9844179371501e-19,0.000336130151594177,0.0156374255492409,-4.65154643977211e-17,0.580129769593178,1.25891070175928e-18,-1.66761280072366e-18,0.000802550690052713,0.037336212195397,-1.11061200173392e-16,1.3851287803221,3.00579893716728e-18,-8.82065564414917e-19,0.000424500415855367,0.0197485813667037,-5.87446079647684e-17,0.732648729292539,1.58988449529751e-18,0,0,0,0,0,0,0.399290148403459,4.1373512718993e-18,0.532622150016413
0.88,-7.15160930818528e-19,0.000344176356932546,0.0160117506026046,-4.76289407585253e-17,0.594016780999054,1.28904621314076e-18,-1.67610498438066e-18,0.000806637614697941,0.0375263438439921,-1.11626770375677e-16,1.39218243689393,3.02110572576913e-18,-8.16284894990582e-19,0.000392842994171076,0.018275816807139,-5.43636868712713e-17,0.678010927058733,1.47131772358886e-18,0,0,0,0,0,0,0.398808954984909,4.11060427122011e-18,0.531827397638262
0.89,-7.3196169227049e-19,0.000352261844577419,0.0163879031449348,-4.87478532122268e-17,0.607971590058051,1.31932884883053e-18,-1.68393684220121e-18,0.000810406752770968,0.0377016914458726,-1.12148363594894e-16,1.39868762302942,3.03522230601056e-18,-7.5000729888504e-19,0.000360946422936761,0.0167919265474076,-4.9949671000864e-17,0.622960374666408,1.35185526333095e-18,0,0,0,0,0,0,0.398315375497223,4.0820940413298e-18,0.531035760892982
0.9,-7.48837450656372e-19,0.000360383425037748,0.0167657347949318,-4.9871760380221e-17,0.621988692001562,1.34974666320456e-18,-1.69110361197128e-18,0.00081385581242194,0.0378621483797453,-1.12625662672765e-16,1.40464038320622,3.04814009420963e-18,-6.83274186655062e-19,0.000328830631281592,0.01529783772919,-4.55053182516221e-17,0.567531467962109,1.23157175523621e-18,0,0,0,0,0,0,0.397809566214537,4.05182917100628e-18,0.530247794074746
0.91,-7.65781533010041e-19,0.000368537886900445,0.01714509615144,-5.10002178502156e-17,0.636062544225549,1.38028762853406e-18,-1.69760094558241e-18,0.000816982701092294,0.0380076172957337,-1.13058378029991e-16,1.41003710586044,3.05985125309154e-18,-6.16126968857415e-19,0.000296515548334737,0.0137944774941669,-4.10333865216218e-17,0.511758602792379,1.11054184001709e-18,0,0,0,0,0,0,0.397291704785614,4.0198219630861e-18,0.529464045030655
0.92,-7.82787224954803e-19,0.000376721998823291,0.0175258368861619,-5.213277845202e-17,0.650187569730127,1.41093964244951e-18,-1.70342490903172e-18,0.00081978552551476,0.0381380101153782,-1.13446247666255e-16,1.41487452338667,3.0703486917886e-18,-5.48607056048865e-19,0.000264021103225366,0.0122827729840187,-3.65366337089389e-17,0.45567617500376,9.8884015838602e-19,0,0,0,0,0,0,0.396761990085554,3.98608841709476e-18,0.528685054129188
0.93,-7.99847774844466e-19,0.000384932511527851,0.0179078058363727,-5.32689925333354e-17,0.664358160559148,1.44169053540475e-18,-1.70857198242188e-18,0.000822262591713357,0.0382532480316359,-1.13789037160221e-16,1.41914971213794,3.07962606584026e-18,-4.80755858786178e-19,0.000231367225082645,0.0107636513404261,-3.20178177116489e-17,0.399318580442794,8.6654135105544e-19,0,0,0,0,0,0,0.396220642008011,3.95064819931166e-18,0.52791135324066
0.94,-8.16956397904392e-19,0.000393166159792386,0.0182908510976344,-5.44084082355445e-17,0.67856868123979,1.47252807814105e-18,-1.71303905996112e-18,0.000824412405003399,0.0383532615088808,-1.14086539669533e-16,1.42286009242577,3.08767777719308e-18,-4.12614787626123e-19,0.000198573843035745,0.00923803970506967,-2.7479696427828e-17,0.342720214956028,7.43720058737791e-19,0,0,0,0,0,0,0.395667901198398,3.91352460033761e-18,0.527143464733192
0.95,-8.34106280372553e-19,0.000401419664444769,0.0186748201165095,-5.55505717695016e-17,0.692813472222134,1.50343998915119e-18,-1.71682344996327e-18,0.000826233669991489,0.0384379902829037,-1.14338575930816e-16,1.42600342852013,3.09449897420077e-18,-3.44225253125466e-19,0.000165660886213832,0.00770686521962982,-2.2925027755552e-17,0.285915474390004,6.20450922145512e-19,0,0,0,0,0,0,0.395104028728832,3.87474448029582e-18,0.526381900487672
0.96,-8.51290583640587e-19,0.000409689734355392,0.0190595597832756,-5.66950276913218e-17,0.707086853318758,1.53441394214352e-18,-1.71992287484769e-18,0.000827725290575523,0.0385073833609121,-1.14544994259676e-16,1.42857782864946,3.10008555162412e-18,-2.75628665840974e-19,0.000132648283746078,0.00617105502578715,-1.83565695928967e-17,0.228938754591262,4.96808581991043e-19,0,0,0,0,0,0,0.394529305715791,3.83433820185918e-18,0.525627160935149
0.97,-8.68502448394853e-19,0.000417973068430086,0.0194449165246396,-5.78413191781714e-17,0.721383127144312,1.56543757350602e-18,-1.72233547113933e-18,0.000828886369944688,0.0385613990215304,-1.147056705507e-16,1.43058174500067,3.10443415063109e-18,-2.06866436329416e-19,9.95559647616484e-05,0.00463153626522232,-1.37770798379381e-17,0.171824451406348,3.72867678986814e-19,0,0,0,0,0,0,0.393944032881719,3.79233955135915e-18,0.524879734120047
0.98,-8.85734998757487e-19,0.000426266357603028,0.0198307363964515,-5.89889883040572e-17,0.735696582555111,1.5964984897704e-18,-1.72405978946871e-18,0.000829716210579464,0.0386000048147997,-1.14820508277454e-16,1.43201397371912,3.10754215879673e-18,-1.37979975147556e-19,6.64038583897139e-05,0.00308923607961587,-9.189316388752e-18,0.114606960681806,2.48702853845276e-19,0,0,0,0,0,0,0.393348530062021,3.74878564829176e-18,0.524140094792509
0.99,-9.02981346427461e-19,0.000434566286829657,0.0202168651764191,-6.0137576315617e-17,0.750021498088714,1.62758427507616e-18,-1.7250947945719e-18,0.000830214314251621,0.0386231775621781,-1.14889438492487e-16,1.43287365490866,3.10940771010324e-18,-6.90106928521613e-20,3.32118937594414e-05,0.00154508161064824,-4.59603714341394e-18,0.0573206782641761,1.24388747278855e-19,0,0,0,0,0,0,0.392743135659155,3.70371684359609e-18,0.523408703533098
1,-9.20234594821632e-19,0.000442869537079585,0.0206031484568216,-6.12866239079087e-17,0.764352145403511,1.65868249863463e-18,-1.72543986529056e-18,0.000830380382024222,0.0386309033565404,-1.14912419827329e-16,1.43316027263158,3.11002968493993e-18,0,8.67361737988404e-19,0,0,3.5527136788005e-15,-3.08148791101958e-33,0,0,0,0,0,0,0.392128206045706,3.65717660713754e-18,0.522686005912951
1.01,-9.37487843215803e-19,0.000451172787329514,0.020989431737224,-6.24356715002004e-17,0.778682792718309,1.68978072219311e-18,-1.7250947945719e-18,0.000830214314251621,0.0386231775621781,-1.14889438492487e-16,1.43287365490866,3.10940771010324e-18,6.90106928521598e-20,-3.32118937594397e-05,-0.00154508161064818,4.59603714341374e-18,-0.057320678264169,-1.24388747278861e-19,0,0,0,0,0,0,0.39150411491858,3.60921140488339e-18,0.521972431692374
1.02,-9.54734190885777e-19,0.000459472716556142,0.0213755605171916,-6.35842595117602e-17,0.793007708251912,1.72086650749886e-18,-1.7240597894687e-18,0.000829716210579463,0.0386000048147997,-1.14820508277454e-16,1.43201397371912,3.10754215879673e-18,1.37979975147555e-19,-6.64038583897122e-05,-0.00308923607961576,9.1893163887518e-18,-0.114606960681799,-2.48702853845279e-19,0,0,0,0,0,0,0.390871252606619,3.55987056631054e-18,0.521268394060714
1.03,-9.71966741248411e-19,0.000467766005729084,0.0217613803890035,-6.4731928637646e-17,0.80732116366271,1.75192742376324e-18,-1.72233547113933e-18,0.000828886369944688,0.0385613990215304,-1.147056705507e-16,1.43058174500067,3.10443415063109e-18,2.06866436329414e-19,-9.95559647616467e-05,-0.00463153626522232,1.37770798379379e-17,-0.171824451406342,-3.7286767898682e-19,0,0,0,0,0,0,0.390230025334143,3.50920614263432e-18,0.520574288920188
1.04,-9.89178606002677e-19,0.000476049339803778,0.0221467371303675,-6.58782201244955e-17,0.821617437488265,1.78295105512575e-18,-1.71992287484769e-18,0.000827725290575523,0.0385073833609121,-1.14544994259676e-16,1.42857782864946,3.10008555162412e-18,2.75628665840977e-19,-0.000132648283746078,-0.00617105502578721,1.83565695928968e-17,-0.228938754591258,-4.96808581991052e-19,0,0,0,0,0,0,0.389580854443111,3.45727275649299e-18,0.519890494216165
1.05,-1.00636290927071e-18,0.000484319409714401,0.0225314767971337,-6.70226760463157e-17,0.835890818584888,1.81392500811807e-18,-1.71682344996327e-18,0.000826233669991488,0.0384379902829037,-1.14338575930816e-16,1.42600342852013,3.09449897420077e-18,3.44225253125466e-19,-0.000165660886213831,-0.00770686521962982,2.2925027755552e-17,-0.285915474389998,-6.20450922145518e-19,0,0,0,0,0,0,0.388924175576712,3.40412744376449e-18,0.519217369316226
1.06,-1.02351279173887e-18,0.000492572914366784,0.0229154458160087,-6.81648395802728e-17,0.850135609567233,1.84483691912821e-18,-1.71303905996112e-18,0.000824412405003398,0.0383532615088808,-1.14086539669533e-16,1.42286009242577,3.08767777719308e-18,4.12614787626123e-19,-0.000198573843035744,-0.00923803970506967,2.7479696427828e-17,-0.342720214956024,-7.437200587378e-19,0,0,0,0,0,0,0.388260437827394,3.34982948822976e-18,0.518555254440115
1.07,-1.0406214147988e-18,0.000500806562631319,0.0232984910772704,-6.9304255282482e-17,0.864346130247875,1.87567446186452e-18,-1.70857198242188e-18,0.000822262591713356,0.0382532480316359,-1.13789037160221e-16,1.41914971213794,3.07962606584026e-18,4.80755858786176e-19,-0.000231367225082643,-0.0107636513404261,3.20178177116488e-17,-0.399318580442788,-8.66541351055444e-19,0,0,0,0,0,0,0.387590102852415,3.29444024983027e-18,0.517904470142495
1.08,-1.05768196468846e-18,0.000509017075335879,0.0236804600274813,-7.04404693637974e-17,0.878516721076897,1.90642535481976e-18,-1.70342490903172e-18,0.000819785525514759,0.0381380101153782,-1.13446247666255e-16,1.41487452338667,3.0703486917886e-18,5.48607056048862e-19,-0.000264021103225364,-0.0122827729840187,3.65366337089387e-17,-0.455676175003754,-9.88840158386024e-19,0,0,0,0,0,0,0.386913643960158,3.23802298729629e-18,0.517265316850184
1.09,-1.07468765663322e-18,0.000517201187258725,0.0240612007622032,-7.15730299656018e-17,0.892641746581474,1.9370773687352e-18,-1.69760094558242e-18,0.000816982701092294,0.0380076172957337,-1.13058378029991e-16,1.41003710586044,3.05985125309154e-18,6.16126968857417e-19,-0.000296515548334737,-0.0137944774941669,4.10333865216219e-17,-0.511758602792374,-1.11054184001709e-18,0,0,0,0,0,0,0.386231545170508,3.1806426759464e-18,0.516638074455347
1.1,-1.09163173898689e-18,0.000525355649121422,0.0244405621187113,-7.27014874355963e-17,0.906715598805461,1.9676183340647e-18,-1.69110361197128e-18,0.00081385581242194,0.0378621483797453,-1.12625662672765e-16,1.40464038320621,3.04814009420963e-18,6.83274186655062e-19,-0.000328830631281591,-0.01529783772919,4.55053182516221e-17,-0.567531467962103,-1.23157175523622e-18,0,0,0,0,0,0,0.38554430025268,3.12236582147778e-18,0.516023001965859
1.11,-1.10850749737277e-18,0.000533477229581751,0.0248183937687083,-7.38253946035906e-17,0.920732700748972,1.99803614843874e-18,-1.68393684220121e-18,0.000810406752770968,0.0377016914458726,-1.12148363594894e-16,1.39868762302942,3.03522230601056e-18,7.50007298885038e-19,-0.000360946422936761,-0.0167919265474076,4.9949671000864e-17,-0.622960374666403,-1.35185526333096e-18,0,0,0,0,0,0,0.384852411743947,3.06326027058077e-18,0.515420337213824
1.12,-1.12530825882474e-18,0.000541562717226624,0.0251945463110386,-7.49443070572921e-17,0.934687509807969,2.0283187841285e-18,-1.67610498438066e-18,0.000806637614697941,0.0375263438439921,-1.11626770375677e-16,1.39218243689393,3.02110572576913e-18,8.16284894990579e-19,-0.000392842994171075,-0.018275816807139,5.43636868712712e-17,-0.678010927058726,-1.47131772358887e-18,0,0,0,0,0,0,0.384156389952755,3.00339501922003e-18,0.514830296622998
1.13,-1.14202739592825e-18,0.000549608922564992,0.0255688713644023,-7.60577834180962e-17,0.948574521213844,2.05845429550998e-18,-1.66761280072366e-18,0.000802550690052714,0.0373362121953971,-1.11061200173392e-16,1.3851287803221,3.00579893716728e-18,8.82065564414917e-19,-0.000424500415855366,-0.0197485813667037,5.87446079647684e-17,-0.732648729292533,-1.58988449529752e-18,0,0,0,0,0,0,0.383456751949708,2.94284001942836e-18,0.514253075035604
1.14,-1.15865833096147e-18,0.000557612680020765,0.0259412216600696,-7.71653856168762e-17,0.962388271473008,2.08843082652801e-18,-1.65846546754982e-18,0.000798148469976432,0.0371314123927975,-1.10451997725298e-16,1.37753095279476,2.98931127029406e-18,9.47307896601286e-19,-0.000455898758860468,-0.0212092930844213,6.30896763832793e-17,-0.786839385521281,-1.70748093774447e-18,0,0,0,0,0,0,0.38275402054994,2.88166598545747e-18,0.51368884559878
1.15,-1.17519454003627e-18,0.000565570849925716,0.0263114511345951,-7.82666791697726e-17,0.976123341806469,2.11823661816035e-18,-1.64866857528429e-18,0.000793433644901531,0.0369120696003204,-1.09799535347637e-16,1.36939359775118,2.97165280164564e-18,1.01197048099291e-18,-0.000487018094057206,-0.0226570248186109,6.73961342287281e-17,-0.840548499898418,-1.82403241021728e-18,0,0,0,0,0,0,0.382048723290358,2.81994420012359e-18,0.513137759710683
1.16,-1.19162955723928e-18,0.000573480320512402,0.0266794150225315,-7.93612334539834e-17,0.989774361589419,2.14786001588175e-18,-1.6382281284578e-18,0.000788409104551746,0.0366783182535093,-1.09104212935628e-16,1.36072170258912,2.95283435412534e-18,1.07601190703304e-18,-0.000517838492316418,-0.0240908494275924,7.16612236030395e-17,-0.893741676577415,-1.93946427200351e-18,0,0,0,0,0,0,0.381341391405181,2.75774632217412e-18,0.512599947025969
1.17,-1.20795697877299e-18,0.000581338009907074,0.0270449699491439,-8.04486219835537e-17,1.00333601179083,2.17728947712805e-18,-1.62715054570665e-18,0.000783077937942092,0.0364303020593248,-1.08366457963473e-16,1.35152059866478,2.93286749704356e-18,1.13939076416489e-18,-0.00054834002450893,-0.0255098397696847,7.58821866081368e-17,-0.946384519711715,-2.05370188239072e-18,0,0,0,0,0,0,0.380632558803189,2.69514419548441e-18,0.512075515520194
1.18,-1.22417046709679e-18,0.000589140868122589,0.0274079740231245,-8.15284226851654e-17,1.01680302841301,2.20651357876021e-18,-1.61544265977272e-18,0.000777443433378886,0.0361681739961442,-1.07586725484356e-16,1.34179596129285,2.91176454611789e-18,1.2020656418317e-18,-0.000578502761505578,-0.0269130687032077,8.00562653459447e-17,-0.998442633454786,-2.16667060066647e-18,0,0,0,0,0,0,0.379922761049984,2.63220966087323e-18,0.511564551612393
1.19,-1.24026375506799e-18,0.000596885879051322,0.027768286929306,-8.26002181739271e-17,1.03017020593122,2.23552102452841e-18,-1.60311171750343e-18,0.000771509078459731,0.0358920963137615,-1.06765498130439e-16,1.33155380974648,2.88953856347298e-18,1.26399512947671e-18,-0.000608306774177191,-0.0282996090864807,8.41807019183874e-17,-1.04988162196008,-2.27829578611834e-18,0,0,0,0,0,0,0.379212534358495,2.56901437129864e-18,0.511067120344888
1.2,-1.25623065008291e-18,0.000604570062458083,0.0281257700213762,-8.36635960291643e-17,1.04343240073324,2.26430065253611e-18,-1.59016537985178e-18,0.000765278560073524,0.0356022405333877,-1.05903286112866e-16,1.32080050725727,2.86620335764065e-18,1.32513781654315e-18,-0.000637732133394601,-0.0296685337778231,8.82527384273886e-17,-1.10066708938105,-2.38850279803387e-18,0,0,0,0,0,0,0.378502414590851,2.50562961116661e-18,0.510583265619145
1.21,-1.27206503821793e-18,0.000612190475973026,0.0284802864145924,-8.47181490702084e-17,1.05658453455897,2.29284144270412e-18,-1.57661172187635e-18,0.000758755764400451,0.0352987874476504,-1.05000627221763e-16,1.3095427610153,2.8417734835598e-18,1.38545229247425e-18,-0.000666758910028641,-0.0310189156355543,9.22696169748727e-17,-1.15076463987116,-2.49721699570063e-18,0,0,0,0,0,0,0.377792936274613,2.44212612044957e-18,0.510113010486293
1.22,-1.28776088837056e-18,0.000619744217084564,0.0288317010784947,-8.57634756321872e-17,1.06962159793998,2.3211325242347e-18,-1.56245923274127e-18,0.000751944776911991,0.0349819271205942,-1.04058086826234e-16,1.2977876221691,2.8162642425765e-18,1.44489714671324e-18,-0.000695367174950138,-0.0323498275179938,9.62285796627637e-17,-1.20013987758387,-2.60436373840619e-18,0,0,0,0,0,0,0.377084631636247,2.37857392427464e-18,0.509656357490695
1.23,-1.30331225640044e-18,0.00062722842513228,0.0291798809296212,-8.67991798418143e-17,1.08253865363914,2.34916318307556e-18,-1.54771681571625e-18,0.00074484988237092,0.0346518588876804,-1.03076257874366e-16,1.2855424858257,2.78969168244392e-18,1.50343096870335e-18,-0.000723536999029929,-0.0336603422834611,1.00126868592986e-16,-1.24875840667262,-2.70986838543809e-18,0,0,0,0,0,0,0.376378029654539,2.31504216859943e-18,0.509213289064781
1.24,-1.31871328927049e-18,0.000634640283299843,0.0295246949242215,-8.78248718931792e-17,1.09533084009017,2.37692286938401e-18,-1.53239378817656e-18,0.000737475564831297,0.0343087913557872,-1.02055760893227e-16,1.27281509105055,2.76207259732236e-18,1.56101234788783e-18,-0.000751248453138842,-0.0349495327902756,1.03961725867464e-16,-1.29658583129088,-2.81365629608391e-18,0,0,0,0,0,0,0.375673655136517,2.25159896254849e-18,0.50878376797317
1.25,-1.33395822918785e-18,0.000641977020607919,0.0298660141509712,-8.88401683235371e-17,1.10799337483724,2.404401204991e-18,-1.51649988160303e-18,0.000729826507638477,0.0339529424032094,-1.00997243988863e-16,1.2596135208676,2.73342452777924e-18,1.6175998737099e-18,-0.000778481608147707,-0.0362164718967566,1.07730393588121e-16,-1.3435877555921,-2.9156528296312e-18,0,0,0,0,0,0,0.374972027818255,2.18831122793644e-18,0.508367737803927
1.26,-1.34904141774504e-18,0.000649235913907081,0.0302037119236857,-8.98446922890982e-17,1.12052155797456,2.43158799086517e-18,-1.50004524158209e-18,0.000721907593429107,0.0335845391796587,-9.99013828463041e-17,1.24594620225926,2.70376576078911e-18,1.67315213561279e-18,-0.000805216534927361,-0.0374602324612239,1.11430113856881e-16,-1.38972978372975,-3.01578334536752e-18,0,0,0,0,0,0,0.374273661492778,2.12524455645347e-18,0.50796512350464
1.27,-1.36395730006096e-18,0.000656414289870729,0.0305376638740347,-9.08380738408182e-17,1.13291077558593,2.45847321457696e-18,-1.48304042780569e-18,0.000713723904131123,0.0332038181062638,-9.87688807295586e-17,1.23182190616637,2.67311532973363e-18,1.72762772303974e-18,-0.000831433304348628,-0.0386798873419965,1.1505812877567e-16,-1.43497751985727,-3.11397320258044e-18,0,0,0,0,0,0,0.373579063167055,2.06246307493725e-18,0.50757583196088
1.28,-1.37870042892195e-18,0.000663509526987996,0.0308677480442565,-9.18199502001878e-17,1.14515650318438,2.48504705776266e-18,-1.4654964140714e-18,0.000705280720963758,0.03281102487557,-9.76004684816173e-17,1.2172497474883,2.64149301440161e-18,1.78098522543399e-18,-0.000857111987282344,-0.0398745093973942,1.1861168044641e-16,-1.47929656812814,-3.21014776055753e-18,0,0,0,0,0,0,0.372888732249924,2.0000293191017e-18,0.50719975261444
1.29,-1.39326546892286e-18,0.000670519057556664,0.0311938449798715,-9.27899660350221e-17,1.15725430915172,2.51129990358846e-18,-1.44742458828231e-18,0.000696583524437532,0.0324064144515395,-9.6396904524451e-17,1.20223918508282,2.60891934098898e-18,1.83318323223876e-18,-0.000882232654599342,-0.0410431714857362,1.22088010971026e-16,-1.52265253269579,-3.30423237858633e-18,0,0,0,0,0,0,0.372203159772532,1.93800411603835e-18,0.506836758118671
1.3,-1.4076472006081e-18,0.000677440369676079,0.0315158378223972,-9.37477737352515e-17,1.16919985817812,2.53722234421457e-18,-1.42883675244712e-18,0.000687637994354259,0.0319902510695512,-9.5158974859011e-17,1.18680002176622,2.57541558209876e-18,1.88418033289729e-18,-0.000906775377170452,-0.0421849464653422,1.25484362451443e-16,-1.56501101771369,-3.39615241595442e-18,0,0,0,0,0,0,0.371522827642712,1.87644647574998e-18,0.506486705028085
1.31,-1.42184052461269e-18,0.00068427100924006,0.0318336124020619,-9.46930336887103e-17,1.1809889147017,2.56280518825927e-18,-1.40974512268004e-18,0.00067845000980704,0.0315628082364007,-9.38874930652297e-17,1.1709424043132,2.54100375674113e-18,1.93393511685281e-18,-0.0009307202258665,-0.0432989071945313,1.28797976989584e-16,-1.60633762733529,-3.48583323194934e-18,0,0,0,0,0,0,0.370848207934488,1.81541349192055e-18,0.506149434519367
1.32,-1.43584046580332e-18,0.000691008581929812,0.0321470573305186,-9.5625414556927e-17,1.19261734634815,2.58803946826296e-18,-1.39016232920092e-18,0.000669025649180276,0.0311243687303008,-9.25833003020205e-17,1.15467682345699,2.50570663033339e-18,1.98240617354855e-18,-0.000954047271558326,-0.0443841265316233,1.32026096687373e-16,-1.64659796571405,-3.57320018585868e-18,0,0,0,0,0,0,0.370179762213683,1.75496025206916e-18,0.505824773140796
1.33,-1.44964217741941e-18,0.000697650755206842,0.03245606409356,-9.65445935509145e-17,1.20408112737026,2.61291644815226e-18,-1.37010141633513e-18,0.000659371190149651,0.0306752246008808,-9.12472653072769e-17,1.13801411388922,2.46954771469995e-18,2.02955209242775e-18,-0.000976736585116753,-0.0454396773349374,1.35165963646735e-16,-1.68575763700344,-3.65817863696997e-18,0,0,0,0,0,0,0.369517940900394,1.69513975717913e-18,0.505512533587076
1.34,-1.46324094521415e-18,0.000704195260305871,0.0327605271438318,-9.74502567069593e-17,1.21537634208752,2.63742763070405e-18,-1.34957584251361e-18,0.000649493109682149,0.0302156771691869,-8.98802843978741e-17,1.12096545426004,2.43255126807236e-18,2.07533146293364e-18,-0.000998768237412621,-0.0464646324627932,1.38214819969594e-16,-1.7237822453569,-3.7406939445708e-18,0,0,0,0,0,0,0.368863182668903,1.63600285083927e-18,0.505212515496498
1.35,-1.4766321915956e-18,0.000710639894227746,0.0330603439935475,-9.83420991624116e-17,1.22649918832573,2.66156476500958e-18,-1.32859948027289e-18,0.000639398084036039,0.0297460370276821,-8.84832814696671e-17,1.10354236717802,2.39474229508928e-18,2.11970287450945e-18,-0.00102012229931676,-0.0474580647735099,1.41169907757873e-16,-1.76063739492789,-3.82067146794872e-18,0,0,0,0,0,0,0.368215913885357,1.57759815787872e-18,0.504924506267341
1.36,-1.48981147976768e-18,0.000716982521732352,0.0333554153072022,-9.92198254314751e-17,1.23744598085657,2.68531985393853e-18,-1.30718661625505e-18,0.000629092988760884,0.0292666240402462,-8.70572079974922e-17,1.08575671921024,2.35614654679651e-18,2.16262491659842e-18,-0.00104077884169999,-0.0484190471254073,1.44028469113498e-16,-1.79628868986988,-3.89803656639129e-18,0,0,0,0,0,0,0.367576548083357,1.51997203242504e-18,0.504648281890388
1.37,-1.50277451787126e-18,0.000723221077331527,0.0336456449942868,-1.00083149680997e-16,1.24821315483718,2.70868516160306e-18,-1.28535195120773e-18,0.000618584898697538,0.0287777673421756,-8.56030430351662e-17,1.06762072088221,2.31679052064695e-18,2.20405617864378e-18,-0.00106071793543315,-0.0493466523768044,1.46787746138392e-16,-1.83070173433631,-3.97271459918606e-18,0,0,0,0,0,0,0.366945485477401,1.46316851526284e-18,0.504383607794459
1.38,-1.51551716312523e-18,0.000729353567281972,0.0339309403020025,-1.00931796006256e-16,1.25879726924974,2.73165322082188e-18,-1.26311059998417e-18,0.000607881087978151,0.028279805340184,-8.41217932154869e-17,1.04914692667792,2.27670146050065e-18,2.24395525008875e-18,-0.00107991965138708,-0.050239953386021,1.49444980934479e-16,-1.86384213248064,-4.04463092562061e-18,0,0,0,0,0,0,0.366323112513907,1.40722930032185e-18,0.504130239701836
1.39,-1.52803542596754e-18,0.000735378071578171,0.0342112119079744,-1.01765498706757e-16,1.26919501034108,2.75421684058437e-18,-1.24047809154315e-18,0.000596989030026158,0.0277730857124014,-8.26144927502329e-17,1.03034823503983,2.23590735662478e-18,2.28228072037659e-18,-0.00109836406043261,-0.0510980230113765,1.51997415603684e-16,-1.89567548845633,-4.11371090498249e-18,0,0,0,0,0,0,0.365709801459386,1.35219371007533e-18,0.50388792449051
1.4,-1.54032547419624e-18,0.000741292745945293,0.0344863740129662,-1.02584002562014e-16,1.27940319506221,2.77636911351459e-18,-1.21747036894902e-18,0.000585916397556292,0.0272579654083749,-8.10822034301632e-17,1.01123788836885,2.19443694569362e-18,2.31899117895051e-18,-0.00111603123344055,-0.0519199341111903,1.5444229224793e-16,-1.92616740641684,-4.17987989655928e-18,0,0,0,0,0,0,0.365105910025115,1.2980986795859e-18,0.503656401060199
1.41,-1.55238363711057e-18,0.000747095823832114,0.0347563444335941,-1.03387063107346e-16,1.28941877450799,2.7981034233354e-18,-1.19410378937171e-18,0.000574671062574569,0.0267348106490683,-7.95260146250177e-17,0.991829473024361,2.15231971078858e-18,2.35404521525375e-18,-0.00113290124128176,-0.0527047595437818,1.56776852969142e-16,-1.95528349051562,-4.24306325963852e-18,0,0,0,0,0,0,0.364511781027522,1.244978748893e-18,0.503435401199125
1.42,-1.56420640965197e-18,0.000752785618403925,0.0350210446950411,-1.04174446909662e-16,1.29923883735663,2.81941345233248e-18,-1.1703951240867e-18,0.000563261096378309,0.0262039969268623,-7.79470432835174e-17,0.972136919324229,2.10958588139821e-18,2.38740141872955e-18,-0.00114895415482705,-0.0534515721674704,1.58998339869244e-16,-1.98298934490614,-4.30318635350778e-18,0,0,0,0,0,0,0.363927742083305,1.1928660633981e-18,0.503224650448622
1.43,-1.5757904565452e-18,0.00075836052453545,0.0352804001237709,-1.04945931843256e-16,1.30886061330933,2.84029318881846e-18,-1.14636155847506e-18,0.000551694769556112,0.0256659090055542,-7.63464339333634e-17,0.952174501544756,2.06626643341817e-18,2.41901837882114e-18,-0.00116417004494726,-0.0541594448405757,1.61103995050159e-16,-2.00925057374184,-4.36017453745461e-18,0,0,0,0,0,0,0.363354105338177,1.14179038186679e-18,0.503023868962669
1.44,-1.58713261643933e-18,0.000763819020803751,0.0355343399402424,-1.05701307365592e-16,1.31828147652983,2.86073693459695e-18,-1.12202069202342e-18,0.000539980551987878,0.0251209409203583,-7.47253586812383e-17,0.931956837920728,2.02239308915124e-18,2.44885468497174e-18,-0.00117852898251322,-0.054827450421417,1.63091060613814e-16,-2.03403278117619,-4.4139531707666e-18,0,0,0,0,0,0,0.362791167227965,1.09177909163508e-18,0.502832772359562
1.45,-1.59822990604883e-18,0.000769159671481147,0.0357827973516237,-1.06440374793095e-16,1.32749894908402,2.88073931242663e-18,-1.09739053832396e-18,0.000528127112844795,0.0245694959779058,-7.30850172128053e-17,0.911498890645394,1.97799831730733e-18,2.4768689266246e-18,-0.00119201103839577,-0.0554546617683139,1.64956778662131e-16,-2.05730157136263,-4.46444761273129e-18,0,0,0,0,0,0,0.362239208270683,1.04285723057705e-18,0.502651072562986
1.46,-1.60907952429463e-18,0.000774381128528128,0.0360257096445063,-1.07162947576945e-16,1.33651070437952,2.9002952734853e-18,-1.07248952507444e-18,0.000516143320589338,0.0240119867562441,-7.14266367927072e-17,0.890815965870458,1.93311533300348e-18,2.50301969322294e-18,-0.00120459628346573,-0.0560401517395854,1.66698391297033e-16,-2.07902254845463,-4.51158322263623e-18,0,0,0,0,0,0,0.361698492888056,9.95047515365252e-19,0.502478478629865
1.47,-1.61967885644515e-18,0.000779482133586262,0.0362630182776192,-1.07868851578858e-16,1.34531457060525,2.91940010483397e-18,-1.0473364940782e-18,0.000504038242975285,0.0234488351048384,-6.97514722645694e-17,0.869923713706104,1.88777809776385e-18,2.52726557421e-18,-0.00121626478859393,-0.0565829931935516,1.68313140620447e-16,-2.09916131660565,-4.55528535976901e-18,0,0,0,0,0,0,0.361169269254898,9.48370375533283e-19,0.502314697562433
1.48,-1.63002547825739e-18,0.000784461519971112,0.0364946689745434,-1.08557925346887e-16,1.35390853417102,2.93804943688096e-18,-1.02195070124413e-18,0.000491821147047695,0.0228804721445697,-6.80608060509968e-17,0.84883812822097,1.84202131951971e-18,2.54956515902902e-18,-0.00122699662465122,-0.0570822589885315,1.69798268734295e-16,-2.11768347996914,-4.59547938341717e-18,0,0,0,0,0,0,0.360651769174621,9.02843992830103e-19,0.502159435102108
1.49,-1.64011716011794e-18,0.000789318214665149,0.0367206118164253,-1.09230020391201e-16,1.36229074314714,2.95623925084588e-18,-9.96351816586703e-19,0.000479501499142927,0.0223073382677366,-6.63559481535756e-17,0.827575547442167,1.79588045260949e-18,2.56987703712322e-18,-0.0012367718625084,-0.0575370219828447,1.71151017740503e-16,-2.13455464269856,-4.63209065286829e-18,0,0,0,0,0,0,0.3601462079791,8.58484345341308e-19,0.502012396502828
1.5,-1.6499518711841e-18,0.000794051240310662,0.0369408013346918,-1.09885001459883e-16,1.37045951070395,2.97396588622381e-18,-9.70559924225941e-19,0.000467088964888625,0.021729883138054,-6.46382361528725e-17,0.806152653355267,1.74939169777872e-18,2.58815979793584e-18,-0.00124557057303633,-0.0579463550348107,1.72368629740993e-16,-2.14974040894737,-4.6650445274099e-18,0,0,0,0,0,0,0.359652784451044,8.15305255840198e-19,0.501873287281636
1.51,-1.65952778352486e-18,0.000798659717202676,0.0371551966037638,-1.10522746814715e-16,1.37841331855148,2.9912260482493e-18,-9.44595522387449e-19,0.000454593409203729,0.0211485656906538,-6.2909035208435e-17,0.78458647190431,1.70259200218004e-18,2.60437203091011e-18,-0.00125337282710583,-0.0583093310027487,1.73448346837691e-16,-2.16320638286902,-4.69426636632961e-18,0,0,0,0,0,0,0.359171680766955,7.73318443823642e-19,0.501741813944407
1.52,-1.66884327626201e-18,0.000803142865281859,0.0373637613337708,-1.1114314850697e-16,1.38615082037895,3.00801681536045e-18,-9.18479523402386e-19,0.000442024896298465,0.0205638541320847,-6.11697380587912e-17,0.762894372991797,1.65551905937323e-18,2.61847232548926e-18,-0.00126015869558773,-0.0586250227449783,1.74387411132519e-16,-2.17491816861696,-4.71968152891493e-18,0,0,0,0,0,0,0.358703062458753,7.32533580683081e-19,0.501617684684733
1.53,-1.67789693971119e-18,0.000807500006127439,0.0375664639632647,-1.11746112653201e-16,1.39367084529443,3.02433564666302e-18,-8.92233253707499e-19,0.000429393689674362,0.0199762259403122,-5.94217650214509e-17,0.741094070478703,1.60821130932522e-18,2.63041927111653e-18,-0.00126590824935287,-0.058892503119819,1.75183064727404e-16,-2.18484137034466,-4.74121537445346e-18,0,0,0,0,0,0,0.358247078392082,6.92958347459757e-19,0.501500610054106
1.54,-1.68668757952293e-18,0.000811730564950116,0.0377632777519342,-1.12331559711031e-16,1.40097240126437,3.04018038939447e-18,-8.65878453845085e-19,0.000416710252124228,0.0193861678647185,-5.76665639929034e-17,0.719203622184461,1.56070793841003e-18,2.64017145723515e-18,-0.00127060155927207,-0.0591108449855901,1.75832549724268e-16,-2.19294159220557,-4.75879326223273e-18,0,0,0,0,0,0,0.357803860759325,6.54598494635434e-19,0.501390303601652
1.55,-1.69521422082369e-18,0.000815834072584974,0.0379541808733188,-1.12899424754942e-16,1.40805467855322,3.055549286388e-18,-8.39437278463016e-19,0.000403985245732171,0.0187941759261029,-5.59056104486193e-17,0.69724142988697,1.5130488794088e-18,2.64768747328836e-18,-0.00127421869621617,-0.0592791212006113,1.76333108225036e-16,-2.19918443835316,-4.77234055154034e-18,0,0,0,0,0,0,0.357373525085353,6.17457903415625e-19,0.501286482481801
1.56,-1.70347611235696e-18,0.000819810167484394,0.0381391565075234,-1.13449657752068e-16,1.414917053163,3.07044098353672e-18,-8.12932296314727e-19,0.000391229531873586,0.0182007554166811,-5.41404074430501e-17,0.675226239322597,1.46527481150984e-18,2.65292590871938e-18,-0.00127673973105599,-0.0593964046232018,1.76681982331632e-16,-2.20353551294087,-4.78178260166381e-18,0,0,0,0,0,0,0.356956170244022,5.8153864797081e-19,0.501188868028397
1.57,-1.71147273062428e-18,0.000823658597710969,0.0383181929339317,-1.13982223837979e-16,1.42155909027288,3.08485453725759e-18,-7.86386490259227e-19,0.000378454171215164,0.0176064209000859,-5.23724856096276e-17,0.653177140186177,1.41742716030852e-18,2.65584535297146e-18,-0.00127814473466238,-0.059461768111681,1.76876414145979e-16,-2.20596042012216,-4.78704477189073e-18,0,0,0,0,0,0,0.356551878483509,5.46841058112776e-19,0.501097186293884
1.58,-1.71920378402632e-18,0.000827379222930414,0.0384912836239212,-1.14497103592478e-16,1.42798054767878,3.09878942195562e-18,-7.59823257261086e-19,0.000365670423714881,0.0170116962113668,-5.06034031607649e-17,0.631113566131,1.36954809780739e-18,2.65640439548781e-18,-0.00127841377790616,-0.0594742845243686,1.76913645770004e-16,-2.20642476405049,-4.78805242150866e-18,0,0,0,0,0,0,0.356160715458546,5.13363781898015e-19,0.501011168552326
1.59,-1.72666921700391e-18,0.000830972016404482,0.0386584273335767,-1.14994293315384e-16,1.43418137923293,3.11224553748784e-18,-7.33266408390441e-19,0.00035288974862201,0.01641711445699,-4.88347458878553e-17,0.609055294768827,1.32168054241608e-18,2.65456162571168e-18,-0.00127752693165815,-0.0594330267195837,1.76790919305628e-16,-2.20489414887932,-4.78473090980513e-18,0,0,0,0,0,0,0.355782730267735,4.81103847667591e-19,0.50093055176515
1.6,-1.73386921417913e-18,0.000834437066983871,0.0388196281964049,-1.15473805302325e-16,1.44016173828348,3.12522321662743e-18,-7.06740168823014e-19,0.000340123804477121,0.015823218014839,-4.70681271612738e-17,0.587022447669899,1.2738681589514e-18,2.6502756330863e-18,-0.00127546426678921,-0.0593370675556462,1.76505476854777e-16,-2.2013341787621,-4.77700559606775e-18,0,0,0,0,0,0,0.355417955494113,4.50056725052457e-19,0.500855079008612
1.61,-1.74080420449631e-18,0.000837774581101147,0.0389748958160484,-1.1593566812053e-16,1.44592198111408,3.13772323252777e-18,-6.80269177840069e-19,0.00032738444911206,0.0152305585342132,-4.53051879303749e-17,0.565035490362894,1.22615535863721e-18,2.64350500705489e-18,-0.00127220585417014,-0.0591854798908749,1.76054560519374e-16,-2.19571045785229,-4.76480183958404e-18,0,0,0,0,0,0,0.355066407247268,4.20216384495933e-19,0.500784499862139
1.62,-1.74747486536315e-18,0.000840984884763645,0.0391242453589998,-1.16379926884615e-16,1.45146267038345,3.14974680618651e-18,-6.53878488828463e-19,0.000314683739649984,0.01463969693583,-4.35475967234953e-17,0.543115232334987,1.17858729910458e-18,2.63420833706072e-18,-0.0012677317646718,-0.0589773365835901,1.75435412401345e-16,-2.18798859030336,-4.7480449996416e-18,0,0,0,0,0,0,0.354728085205342,3.91575354869651e-19,0.500718570756803
1.63,-1.75388212679175e-18,0.000844068425546394,0.0392676976473161,-1.16806643532374e-16,1.45678457856498,3.16129561390965e-18,-6.27593569280593e-19,0.000302033932505324,0.0140512034118222,-4.17970496479507e-17,0.521282827031782,1.13120988439163e-18,2.62234421254698e-18,-0.001262022069165,-0.0587117104921105,1.74645274602612e-16,-2.17813418026875,-4.72666043552795e-18,0,0,0,0,0,0,0.354402972655365,3.64124778785763e-19,0.500657055283315
1.64,-1.76002717553963e-18,0.000847025774585019,0.0394052792513325,-1.17215897100569e-16,1.4618886913863,3.17237179477562e-18,-6.01440300794443e-19,0.000289447483383808,0.0134656574257405,-4.00552703900388e-17,0.499559771857382,1.08406976494364e-18,2.60787122295692e-18,-0.00125505683852058,-0.0583876744747558,1.736813892251e-16,-2.16611283190191,-4.70057350653066e-18,0,0,0,0,0,0,0.354091036530455,3.37854465237065e-19,0.500599724459069
1.65,-1.76591145925084e-18,0.000849857628568661,0.0395370225823771,-1.1760778400072e-16,1.46677621126888,3.18297795809932e-18,-5.75444979073559e-19,0.000276937047282464,0.0128836477125521,-3.83240102150378e-17,0.477967908174336,1.037214337613e-18,2.59074795773377e-18,-0.00124681614360937,-0.0580043013898453,1.72540998370734e-16,-2.15189014935631,-4.66970957193731e-18,0,0,0,0,0,0,0.353792227442518,3.12752939226412e-19,0.500546356953868
1.66,-1.771536690597e-18,0.000852564811732886,0.0396629659854843,-1.17982418294896e-16,1.47144856076761,3.19311719089621e-18,-5.49634313927065e-19,0.000264515478489608,0.0123057722786411,-3.66050479672072e-17,0.456529421303672,9.90691745659248e-19,2.57093300632078e-18,-0.0012372800553022,-0.057560664095699,1.71221344141437e-16,-2.13543173678542,-4.63399399103547e-18,0,0,0,0,0,0,0.353506479709198,2.88807488079116e-19,0.500496739274107
1.67,-1.77690485141833e-18,0.000855148277852603,0.03978315383211,-1.18339931971501e-16,1.47590738601038,3.20279306534638e-18,-5.24035429269632e-19,0.000252195830584838,0.0117326384018079,-3.49001900697858e-17,0.435266840524868,9.44550878749023e-19,2.54838495816116e-18,-0.00122642864446991,-0.0570558354506357,1.69719668639134e-16,-2.11670319834266,-4.59335212311268e-18,0,0,0,0,0,0,0.35323371137392,2.66004204164232e-19,0.50045066590532
1.68,-1.78201819686474e-18,0.000857609112234969,0.0398976366128447,-1.18680475221069e-16,1.48015456013765,3.21200964625864e-18,-4.9867586312152e-19,0.000239991356439057,0.0111648626312704,-3.32112705249949e-17,0.41420303907588,8.98841372956105e-19,2.52306240269816e-18,-0.00121424198198332,-0.056488888312975,1.68033213965747e-16,-2.09567013818152,-4.54770932745649e-18,0,0,0,0,0,0,0.352973824218022,2.443280237853e-19,0.500407939413114
1.69,-1.78687925953687e-18,0.000859948533712311,0.0400064710301284,-1.19004216712049e-16,1.4841921867421,3.22077149853457e-18,-4.73583567608533e-19,0.000227915508214449,0.0106030707876626,-3.15401509140347e-17,0.393361234153118,8.53613610761378e-19,2.494923929375e-18,-0.00120070013871327,-0.0558588955410365,1.66159222223203e-16,-2.07229816045544,-4.49699096335449e-18,0,0,0,0,0,0,0.352726703764057,2.2376276203522e-19,0.500368370502655
1.7,-1.79149085362713e-18,0.000862167896635031,0.0401097200909644,-1.19311343866599e-16,1.4880226033081,3.22908369463256e-18,-4.48786908962075e-19,0.0002159819373645,0.0100478979630361,-2.98887203970882e-17,0.372764986911475,8.08918721052872e-19,2.46392812763491e-18,-0.00118578318553059,-0.0551649299931398,1.64094935513425e-16,-2.04655286931789,-4.44112239009423e-18,0,0,0,0,0,0,0.35249221926949,2.04291143446045e-19,0.500331778036999
1.71,-1.79585607906078e-18,0.000864268692864523,0.0402074531996338,-1.19602063136371e-16,1.49164838465142,3.23695182203196e-18,-4.2431466751908e-19,0.000204204494633975,0.0094999885208586,-2.82588957133171e-17,0.352438202464286,7.64808579125724e-19,2.43003358692114e-18,-0.0011694711933061,-0.0544060645276037,1.61837595938337e-16,-2.01839986892231,-4.38002896696326e-18,0,0,0,0,0,0,0.352270223710128,1.85894828299687e-19,0.500297989014706
1.72,-1.79997832563698e-18,0.000866252553766085,0.0402997462504091,-1.19876600278305e-16,1.49507234635873,3.24438199069708e-18,-4.00196037722088e-19,0.000192597230058948,0.00895999609601511,-2.66526211808659e-17,0.332405129883379,7.21335806682223e-19,2.39319889667692e-18,-0.00115174423291065,-0.0535813720027484,1.59384445599863e-16,-1.98780476342218,-4.31363605324917e-18,0,0,0,0,0,0,0.35206055375277,1.68554434502113e-19,0.500266838507296
1.73,-1.80386127716985e-18,0.000868121252201833,0.0403866817202693,-1.20135200630418e-16,1.49829754822719,3.25138084054131e-18,-3.76460628119175e-19,0.000181174392966768,0.00842858359480718,-2.50718686968587e-17,0.312690362199021,6.78553771831743e-19,2.35338264634549e-18,-0.00113258237521506,-0.0526899252768931,1.56732726599928e-16,-1.95473315697093,-4.24186900823952e-18,0,0,0,0,0,0,0.351863029716642,1.52249554959172e-19,0.500238169557268
1.74,-1.80750891562951e-18,0.000869876704523615,0.040468348761613,-1.20378129387593e-16,1.50132729770411,3.25795554889115e-18,-3.53138461363994e-19,0.000169950431976078,0.00790642319495294,-2.35186377373995e-17,0.293318836399953,6.36516589090797e-19,2.31054342537005e-18,-0.00111196569109017,-0.0517307972083569,1.53879681040456e-16,-1.91915065372204,-4.16465319122183e-18,0,0,0,0,0,0,0.351677455523363,1.369587704284e-19,0.500211833037542
1.75,-1.81092552528315e-18,0.000871520972565916,0.0405448432949732,-1.20605671877368e-16,1.50416515332642,3.2641138379503e-18,-3.30259974215775e-19,0.000158939994996823,0.00739419634558786,-2.19949553575747e-17,0.27431583343339,5.95279119383037e-19,2.26463982319386e-18,-0.00108987425140679,-0.0507030606554593,1.50822551023369e-16,-1.88102285782894,-4.08191396148368e-18,0,0,0,0,0,0,0.351503618635256,1.22659657856241e-19,0.500187687473327
1.76,-1.81411569683606e-18,0.000873056265638784,0.0406162681017314,-1.20818133835726e-16,1.50681492816035,3.26986398226376e-18,-3.07856017539302e-19,0.00014815792923023,0.00689259376726375,-2.05028761914507e-17,0.255706978205004,5.54896970039218e-19,2.21563042926014e-18,-0.00106628812703577,-0.04960578847652,1.47558578650593e-16,-1.84031537344511,-3.99357667831263e-18,0,0,0,0,0,0,0.351341289981964,1.09328794244859e-19,0.500165598827586
1.77,-1.81708433157273e-18,0.000874484942520729,0.0406827329168317,-1.21015841682888e-16,1.50928069324097,3.27521481618183e-18,-2.85957856304952e-19,0.000137619281168832,0.00640231545194989,-1.90444824520754e-17,0.23751823957895,5.15426494797277e-19,2.16347383301215e-18,-0.00104118738884795,-0.0484380535298588,1.44085006024054e-16,-1.79699380472402,-3.89956670099629e-18,0,0,0,0,0,0,0.351190223875435,9.69417561269332e-20,0.500145440251433
1.78,-1.81983664549787e-18,0.000875809513451646,0.0407443545214949,-1.21199142799099e-16,1.51156678101179,3.28017574132425e-18,-2.64597169588634e-19,0.000127339296596428,0.00592407066303135,-1.7621883931476e-17,0.21977593037781,4.76924793802167e-19,2.10812862389308e-18,-0.00101455210771414,-0.0471989286737941,1.40399075245671e-16,-1.75102375581908,-3.79980938882213e-18,0,0,0,0,0,0,0.351050157913444,8.54731147592272e-20,0.500127091800943
1.79,-1.82237817347748e-18,0.000877032642125726,0.0408012568359327,-1.21368405800419e-16,1.51367778876433,3.28475673404426e-18,-2.43806050571851e-19,0.000117333420588134,0.00545857793531096,-1.6237218000662e-17,0.20250670738267,4.39449713606063e-19,2.0495533913462e-18,-0.000986362354505179,-0.0458874867666464,1.36498028417374e-16,-1.70237083088378,-3.6942301010778e-18,0,0,0,0,0,0,0.350920812871916,7.48964271778216e-20,0.500110440122061
1.8,-1.82471477337992e-18,0.000878157147684368,0.0408535710120623,-1.21524020814514e-16,1.51561858207772,3.28896835289263e-18,-2.23617006541659e-19,0.000107617297510339,0.00500656507500762,-1.48926496096218e-17,0.185737571333056,4.03059847168219e-19,1.98770672481472e-18,-0.000956598200091901,-0.0445028006667345,1.32379107641083e-16,-1.65100063407157,-3.58275419705081e-18,0,0,0,0,0,0,0.350801892586409,6.51842232878719e-20,0.500095378105453
1.81,-1.82685263021691e-18,0.000879186006709085,0.0409014355262196,-1.21666399756443e-16,1.51739429825826,3.29282174608178e-18,-2.04062958890695e-19,9.820677102074e-05,0.00456876915975765,-1.3590371287327e-17,0.16949586692698,3.67814533855033e-19,1.92254721374189e-18,-0.000925239715345141,-0.0430439432323782,1.28039555018724e-16,-1.59687876953591,-3.46530703602874e-18,0,0,0,0,0,0,0.350693083823208,5.63079891895089e-20,0.500081804513345
1.82,-1.82879826028464e-18,0.00088012235521443,0.0409449962718743,-1.21795976604452e-16,1.51901034977904,3.2963286589498e-18,-1.85177243117145e-19,8.91178840683109e-05,0.00414593653861383,-1.23326031417277e-17,0.153809282820904,3.33773859439999e-19,1.85403344757093e-18,-0.000892266971135722,-0.0415099873218967,1.2347661265222e-16,-1.53997084143026,-3.34181397729914e-18,0,0,0,0,0,0,0.350594056140526,4.82381469685583e-20,0.500069623580586
1.83,-1.83055851530484e-18,0.000880969490640898,0.0409844066523436,-1.21913207675759e-16,1.5204724277195,3.29950144142457e-18,-1.66993608824793e-19,8.03668788933307e-05,0.0037388228320458,-1.11215928597566e-17,0.138705851629764,3.00998656103779e-19,1.78212401574508e-18,-0.000857660038334482,-0.0399000057936096,1.18687522643496e-16,-1.48024245390807,-3.2122003801496e-18,0,0,0,0,0,0,0.350504461740408,4.09440312057043e-20,0.500058744592378
1.84,-1.83214058656576e-18,0.000881730873847849,0.0410198276735067,-1.22018571902348e-16,1.52178650520504,3.30235305548783e-18,-1.4954621972295e-19,7.19701970273592e-05,0.00334819293193999,-9.9596157073256e-18,0.124213949926953,2.69550502434114e-19,1.70677750770757e-18,-0.000821398987812245,-0.0382130715058362,1.13669527094476e-16,-1.41765921112278,-3.07639160386764e-18,0,0,0,0,0,0,0.350423935311958,3.43938624810312e-20,0.500049081441335
1.85,-1.83355200906331e-18,0.000882410131106409,0.0410514280365182,-1.22112571106756e-16,1.52295884084656,3.3048970826392e-18,-1.32869653626534e-19,6.39444792932528e-05,0.00297482100159965,-8.84897452932818e-18,0.110362298244339,2.39491723425903e-19,1.62795251290164e-18,-0.000783463890439854,-0.036448257316896,1.08419868107085e-16,-1.35218671722789,-2.93431300774084e-18,0,0,0,0,0,0,0.350352093866568,2.85547181718711e-20,0.500040552166744
1.86,-1.83480066564204e-18,0.000883011056092391,0.0410793842305235,-1.22195730277865e-16,1.52399598218008,3.30714773136029e-18,-1.16998902456004e-19,5.63065658051605e-05,0.00261949047574483,-7.79199974963875e-18,0.0971799610722479,2.10885390481159e-19,1.54560762077052e-18,-0.000743834817088127,-0.0346046360851085,1.02935787783245e-16,-1.28379057637682,-2.78588995105677e-18,0,0,0,0,0,0,0.350288536565844,2.33925008604229e-20,0.500033078479139
1.87,-1.83589479113625e-18,0.000883537611879206,0.0411038806253717,-1.22268597846688e-16,1.52490476910632,3.30911984457879e-18,-1.01969372237399e-19,4.90734959685192e-05,0.00228299406051258,-6.79104937111174e-18,0.0846963468594778,1.83795321409003e-19,1.45970142075743e-18,-0.000702491838627905,-0.032681280668793,9.72145282248822e-17,-1.21243639272304,-2.63104779310297e-18,0,0,0,0,0,0,0.35023284454296,1.88719046849151e-20,0.500026585273546
1.88,-1.83684297651105e-18,0.000883993932930779,0.0411251095643307,-1.22331745962166e-16,1.52569233733027,3.3108289071325e-18,-8.78168831023173e-20,4.22625084800616e-05,0.00196613373345636,-5.8485089755829e-18,0.0729412080132858,1.58286080425702e-19,1.37019250230562e-18,-0.000659415025930019,-0.0306772639262691,9.12533315339198e-17,-1.13808977042,-2.46971189316704e-18,0,0,0,0,0,0,0.350184580718163,1.49563799816809e-20,0.500021000134998
1.89,-1.83765417300336e-18,0.000884384327094451,0.0411432714568011,-1.22385770766948e-16,1.52636612180081,3.31229105323341e-18,-7.45776692879398e-20,3.58910413278091e-05,0.00166972074354689,-4.96679172386918e-18,0.0619446408993979,1.34422978154651e-19,1.27703945485831e-18,-0.000614584449865294,-0.0285916587158563,8.50494398122822e-17,-1.06071631362117,-2.3018076105365e-18,0,0,0,0,0,0,0.350143289609142,1.1608096578658e-20,0.500016252840173
1.9,-1.83833769626301e-18,0.000884713277593908,0.04115857487103,-1.22431292673191e-16,1.52693386015023,3.3135230739318e-18,-6.22883791369944e-20,2.99767317910745e-05,0.00139457561117121,-4.14833835576682e-18,0.0517370858420047,1.12272071626337e-19,1.18020086785874e-18,-0.000567980181304568,-0.0264235378958738,7.86000951618932e-17,-0.980281626479994,-2.12726030449894e-18,0,0,0,0,0,0,0.350108497136983,8.78790610955543e-21,0.500012274859295
1.91,-1.83890323049379e-18,0.000884985445022084,0.0411712366268255,-1.22468956638341e-16,1.52740359613389,3.31454242458027e-18,-5.09860750977954e-20,2.45374164404672e-05,0.00114152812813349,-3.39561719005423e-18,0.0423493271237599,9.19001642784056e-20,1.07963533075015e-18,-0.000519582291118669,-0.0241719743246413,7.19025396846771e-17,-0.896751313149935,-1.94599533434191e-18,0,0,0,0,0,0,0.350079710428371,6.45530372729676e-21,0.500008998862704
1.92,-1.8393608325945e-18,0.000885205669334069,0.041181481888271,-1.22499432440928e-16,1.52778368306976,3.31536723229785e-18,-4.07082337242128e-20,1.95911311378832e-05,0.000911417357654747,-2.71112412448958e-18,0.0338124929857893,7.33748059556054e-20,9.75301432975763e-19,-0.000469370850178428,-0.021836040860478,6.49540154825583e-17,-0.810090977784448,-1.75793805935295e-18,0,0,0,0,0,0,0.350056417614679,4.56838960014255e-21,0.500006358236789
1.93,-1.83972093630001e-18,0.000885378971840035,0.0411895442564391,-1.22523414956356e-16,1.52808278727799,3.31601630343404e-18,-3.14927456756878e-20,1.51561110365121e-05,0.000705091634372618,-2.09738263581279e-18,0.0261580556276774,5.67642929098279e-20,8.6715776397881e-19,-0.000417325929354676,-0.0194148103617033,5.77517646574606e-17,-0.720266224536993,-1.56301383881965e-18,0,0,0,0,0,0,0.35003808762853,3.08383057878058e-21,0.500004286614272
1.94,-1.83999435632231e-18,0.000885510557198141,0.0411956658621059,-1.22541624432689e-16,1.52830989152055,3.3165091310329e-18,-2.33779157172295e-20,1.12507905808316e-05,0.000523408564341614,-1.55694377974369e-18,0.0194178312074771,4.21376678000627e-20,7.55162913202527e-19,-0.000363427599518245,-0.0169073556866371,5.0293029311308e-17,-0.627242657561017,-1.36114803202957e-18,0,0,0,0,0,0,0.35002416999837,1.95682242541793e-21,0.50000271742416
1.95,-1.84019229249155e-18,0.000885605815407447,0.0412000974584649,-1.22554806766444e-16,1.52847429844077,3.31686590229712e-18,-1.64024627194213e-20,7.89380350661673e-06,0.000367235025033097,-1.09238619098351e-18,0.0136239798417067,2.95647196924592e-20,6.3927547009015e-19,-0.000307655931539971,-0.0143127496935983,4.25750515460252e-17,-0.530985881009986,-1.15226599827025e-18,0,0,0,0,0,0,0.350014094641496,1.14105299733478e-21,0.500001583466963
1.96,-1.84032633389714e-18,0.000885670323800825,0.0412030985138417,-1.2256373377838e-16,1.52858563400293,3.31710750605207e-18,-1.06055196584053e-20,5.10398284093575e-06,0.000237447165335173,-7.06316083214001e-19,0.00880900560534984,1.91159840602653e-20,5.19454024084911e-19,-0.00024999099629068,-0.0116300652409066,3.45950734635358e-17,-0.431461499037362,-9.36293096829282e-19,0,0,0,0,0,0,0.350007271655953,5.88666778699608e-22,0.500000816521129
1.97,-1.84040846302876e-18,0.000885709849037877,0.0412049373044078,-1.22569203489289e-16,1.52865385093187,3.3172555402099e-18,-6.02663361589477e-21,2.90036090213999e-06,0.000134930405552874,-4.01367249097271e-19,0.00500575653185781,1.08627427838634e-20,3.95657164630048e-19,-0.000190412864641212,-0.00885837518688177,2.63503371657656e-17,-0.328635115796598,-7.1315468699423e-19,0,0,0,0,0,0,0.350003091111607,2.50231154537488e-22,0.500000346986972
1.98,-1.84045105991747e-18,0.000885730349097847,0.0412058910068948,-1.22572040395783e-16,1.52868923215254,3.31733231923362e-18,-2.70576577915256e-21,1.30216929987329e-06,6.05794374075512e-05,-1.80201060275972e-19,0.00224742461313253,4.87702415073033e-21,2.67843481168776e-19,-0.000128901607462381,-0.00599675238984236,1.78380847546359e-17,-0.222472335441129,-4.82776128052599e-19,0,0,0,0,0,0,0.350000922840644,7.4704822636684e-23,0.500000103574717
1.99,-1.84046690627667e-18,0.000885737975272524,0.0412062457913084,-1.22573095746084e-16,1.5287023942296,3.31736088160111e-18,-6.83291441055695e-22,3.28838935084142e-07,1.52982240381278e-05,-4.55064673756972e-20,0.000567545799565565,1.23160285553085e-21,1.35971563144355e-19,-6.54372956250381e-05,-0.00304426970810892,9.05555833207281e-18,-0.11293876212445,-2.45082779292028e-19,0,0,0,0,0,0,0.350000116227669,9.40874021981429e-24,0.500000013043621
2,-1.84046918964326e-18,0.00088573907415917,0.0412062969136431,-1.22573247815817e-16,1.52870429080702,3.31736499726926e-18,-6.16297582203915e-33,0,0,0,0,0,-3.08148791101958e-33,1.73472347597681e-18,0,0,1.4210854715202e-14,-1.23259516440783e-32,0,0,0,0,0,0,0.34999999999951,6.59448890017087e-30,0.499999999999523
2.01,4.88591634862647e-07,0.000886063423860885,0.0412063523239948,-1.22573270721267e-16,1.52870391104697,4.88591634867805e-07,0.00014633262339455,9.71423564431696e-05,1.659533555897e-05,-6.86015532436617e-21,-0.000113737692002144,0.00014633262339455,0.0291686433254689,0.019363493123789,0.00330796655289168,-1.3674423322148e-18,-0.0226714596766815,0.0291686433254689,0,0,0,0,0,0,0.350000077091805,1.71007109868995e-07,0.499999905071767
2.02,3.88916990272127e-06,0.00088832088483265,0.0412067379778302,-1.2257343014228e-16,1.52870126793216,3.88916990272643e-06,0.000581421786688276,0.000385974645544423,6.59380623920883e-05,-2.72573789297665e-20,-0.000451912707936528,0.000581421786688276,0.0577519627046073,0.0383384211681708,0.00654955250605978,-2.70744435007076e-18,-0.0448879736742323,0.0577519627046073,0,0,0,0,0,0,0.350000613647789,1.36121185254046e-06,0.49999924437769
2.03,1.30600994777265e-05,0.000894408971610732,0.041207778037457,-1.22573860080594e-16,1.52869413978576,1.30600994777316e-05,0.00129943389216104,0.000862624255606312,0.000147366602039023,-6.09181884885308e-20,-0.00100999085764537,0.00129943389216104,0.0857538864860483,0.0569273919524704,0.00972520336688499,-4.02019021675153e-18,-0.0666525953193579,0.0857538864860483,0,0,0,0,0,0,0.350002060642547,4.57106172966146e-06,0.499997462563325
2.04,3.0801605474261e-05,0.000906186603005387,0.041209790071674,-1.2257469181233e-16,1.52868035012015,3.08016054742662e-05,0.00229457462557903,0.00152324465312464,0.000260223831113248,-1.07570943304825e-19,-0.00178346848423795,0.00229457462557903,0.113178343018425,0.0751330132960126,0.012835364642748,-5.30586409544069e-18,-0.0879683779387639,0.113178343018425,0,0,0,0,0,0,0.350004859788378,1.07807116086857e-05,0.499994015552063
2.05,5.98561662818011e-05,0.000925474362882799,0.0412130851003213,-1.22576053906409e-16,1.52865776733162,5.98561662818062e-05,0.00356108895619477,0.00236401538278846,0.000403857081302045,-1.66945844314651e-19,-0.0027678724640906,0.00356108895619477,0.140029260650371,0.0929578930181224,0.0158804818410296,-6.56465014932189e-18,-0.108838374859156,0.140029260650371,0,0,0,0,0,0,0.350009443497903,2.09502234752317e-05,0.49998837044784
2.06,0.00010290890639978,0.000954054760947005,0.0412179676388313,-1.22578072242974e-16,1.52862430439505,0.000102908906399785,0.00509326113674711,0.00338114206748006,0.000577618139366503,-2.38774934085848e-19,-0.00395876020684671,0.00509326113674711,0.166310567730518,0.110404638938124,0.0188610004691103,-7.79673254157872e-18,-0.12926563940724,0.166310567730518,0,0,0,0,0,0,0.35001623481237,3.60197880738629e-05,0.499980005431128
2.07,0.000162587989272451,0.000993672493521834,0.0412247357427794,-1.22580870031796e-16,1.52857791855853,0.000162587989272456,0.00688541470346125,0.004570856408275,0.000780863247141517,-3.2279209681809e-19,-0.00535171965541672,0.00688541470346125,0.1920261926075,0.127475858875344,0.0217773660343709,-9.0022954353948e-18,-0.14925322490972,0.1920261926075,0,0,0,0,0,0,0.350025647297852,5.69099666894154e-05,0.499968409648278
2.08,0.000241465010123751,0.00104603470433284,0.0412336810524345,-1.22584567830702e-16,1.52851661103806,0.000241465010123756,0.00893191247604868,0.00592941618444208,0.00101295310153579,-4.18733058342887e-19,-0.00694236928597813,0.00893191247604868,0.217180063629951,0.144174160649105,0.0246300240441922,-1.01815229939538e-17,-0.168804184693304,0.217180063629951,0,0,0,0,0,0,0.350038084911955,8.45219513596582e-05,0.499953083094797
2.09,0.000342055388792163,0.00111281124528921,0.0412450888373104,-1.2258928356398e-16,1.52843842671223,0.000342055388792168,0.0112271565577073,0.00745310525344333,0.00127325285453183,-5.26335386123587e-19,-0.00872635810797549,0.0112271565577073,0.241776109146502,0.160502152078734,0.0274194200059547,-1.13345993804392e-17,-0.187921572084695,0.241776109146502,0,0,0,0,0,0,0.350053941843529,0.00011973784184537,0.49993353649306
2.1,0.000466818762565582,0.00119563493726576,0.0412592380407157,-1.22595132540804e-16,1.52834145381684,0.000466818762565587,0.0137655883351212,0.00913823355093406,0.00156113211318596,-6.45338489255372e-19,-0.0106993656641204,0.0137655883351212,0.265818257505788,0.176462440983554,0.0301459994270392,-1.24617087580348e-17,-0.206608440410601,0.265818257505788,0,0,0,0,0,0,0.350073602327812,0.00016342093771643,0.499909291165023
2.11,0.000618159379016174,0.00129610183088478,0.0412764013243051,-1.22602227473647e-16,1.52822382363964,0.00061815937901618,0.0165416884784609,0.0109811370907628,0.00187596493962829,-7.75483618465261e-19,-0.0128571020303916,0.0165416884784609,0.289310437056441,0.192057635182892,0.0328102078148263,-1.3563035289924e-17,-0.224867842997726,0.289310437056441,0,0,0,0,0,0,0.350097440439302,0.000216416043942819,0.49987987890041
2.12,0.000798426488835244,0.00141577146729804,0.0412968451126299,-1.22610678496697e-16,1.5280837102149,0.000798426488835249,0.0195499769413833,0.0129781779649714,0.00221712985106276,-9.1651386611211e-19,-0.0151953078160347,0.0195499769413833,0.312256576147095,0.20729034249607,0.0354124906766969,-1.46387631392906e-17,-0.242702833172776,0.312256576147095,0,0,0,0,0,0,0.350125819864578,0.000279549788407959,0.4998448418209
2.13,0.0010099147386681,0.00155616713896868,0.0413208296376889,-1.22620593184273e-16,1.52791933001817,0.0010099147386681,0.0227850129610316,0.0151257443437948,0.00258400981976711,-1.06817416618661e-18,-0.0177097541635625,0.0227850129610316,0.334660603126382,0.222163170742416,0.0379532935200315,-1.56890764693182e-17,-0.260116464262457,0.334660603126382,0,0,0,0,0,0,0.350159093657197,0.000353630949789084,0.499803732240769
2.14,0.0012548645639489,0.00171877615045316,0.041348608983479,-1.22632076569243e-16,1.52772894166089,0.0012548645639489,0.0262413950580352,0.0174202504756613,0.00297599227309287,-1.23021129431129e-18,-0.0203962427487549,0.0262413950580352,0.356526446342936,0.236678727741253,0.0404330618522109,-1.67141594431904e-17,-0.277111789593474,0.356526446342936,0,0,0,0,0,0,0.350197603976669,0.000439450794275691,0.49975611252449
2.15,0.00153546258173554,0.00190505007918321,0.0413804311305459,-1.22645231161439e-16,1.5275108455851,0.00153546258173554,0.02991376103651,0.0198581366871925,0.00339246909346541,-1.40237386774051e-18,-0.0232506057806588,0.02991376103651,0.377858034145389,0.250839621311906,0.0428522411806157,-1.77141962240907e-17,-0.293691862492532,0.377858034145389,0,0,0,0,0,0,0.350241681813465,0.000537783419622958,0.499701554941714
2.16,0.00185384198354451,0.0021164050362477,0.0414165380005351,-1.22660156966073e-16,1.52726338375804,0.00185384198354451,0.0337967879840581,0.0224358693832032,0.00383283661838387,-1.58441234536048e-18,-0.0262687060015881,0.0337967879840581,0.398659294882375,0.2646484592737,0.0452112770126267,-1.86893709752028e-17,-0.309859736286338,0.398659294882376,0,0,0,0,0,0,0.350291646701883,0.000649386105062654,0.499639641520105
2.17,0.00221208292818574,0.00235422192717465,0.0414571655007423,-1.22676951502157e-16,1.52698493936691,0.00221208292818575,0.037885192271768,0.0251499410467014,0.00429649564042123,-1.77607902768922e-18,-0.0294464366871238,0.0378851922717681,0.418934156902527,0.278107849445961,0.0475106148556245,-1.96398678597103e-17,-0.325618464301597,0.418934156902528,0,0,0,0,0,0,0.350347806422529,0.000774999665619778,0.499569963896444
2.18,0.00261221293459749,0.00261984671271312,0.0415025435686644,-1.22695709820912e-16,1.52667393651345,0.0026122129345975,0.0421737295542146,0.0279968702388884,0.00478285140722426,-1.97712805687661e-18,-0.0327797216461139,0.0421737295542146,0.438686548554479,0.291220399648012,0.0497507002169899,-2.05658710407969e-17,-0.340971099865014,0.438686548554479,0,0,0,0,0,0,0.350410456696078,0.000915348809409249,0.499492123166427
2.19,0.0030562072746812,0.00291459066961512,0.0415528962165501,-1.22716524524192e-16,1.52632883990866,0.0030562072746812,0.0466571947694591,0.0309732015991587,0.00529131362151353,-2.18731541670437e-18,-0.0362645152206736,0.0466571947694591,0.457920398186862,0.303988717699179,0.0519319786041035,-2.14675646816461e-17,-0.355920696303296,0.457920398186862,0,0,0,0,0,0,0.3504798808699,0.00107114249651356,0.49940572973357
2.2,0.00354598936613633,0.00323973065141762,0.0416084415759506,-1.22739485782895e-16,1.52594815456746,0.00354598936613633,0.0513304221390488,0.0340755058451001,0.00582129644108342,-2.40639893258602e-18,-0.039896802286185,0.0513304221390488,0.47663963414831,0.316415411418787,0.0540548955243461,-2.23451329454416e-17,-0.370470306943147,0.47663963414831,0,0,0,0,0,0,0.350556349599048,0.00124307429806972,0.49931040315761
2.21,0.00408343116529527,0.00359650934922439,0.0416693919422705,-1.22764681355383e-16,1.52553042550333,0.00408343116529527,0.0561882851680176,0.0373003797724937,0.00637221847880214,-2.63413827156696e-18,-0.0436725982512974,0.0561882851680176,0.494848184787456,0.32850308862616,0.0561198964850982,-2.3198759995367e-17,-0.384622985111273,0.494848184787456,0,0,0,0,0,0,0.350640120523038,0.0014318227542221,0.49920577200278
2.22,0.00467035355995818,0.003986135552488,0.0417359538193186,-1.22792196605894e-16,1.52507423742302,0.00467035355995818,0.0612256966448857,0.0406444462553137,0.00694350280261169,-2.87029494232441e-18,-0.0475879490579271,0.0612256966448857,0.512549978452934,0.340254357140624,0.0581274269937408,-2.40286299946059e-17,-0.39838178413438,0.512549978452934,0,0,0,0,0,0,0.350731437939768,0.00163805172962717,0.499091473686344
2.23,0.00530852676222784,0.00440978440979173,0.0418083279638581,-1.22822114522965e-16,1.52457821442118,0.00530852676222784,0.0664376086416595,0.0441043542457276,0.00753457693552786,-3.11463229516741e-18,-0.0516389311812573,0.0664376086416595,0.529748943493376,0.351671824781504,0.0600779325576543,-2.48349271063419e-17,-0.411749757339173,0.529748943493377,0,0,0,0,0,0,0.35083053247785,0.00186241076522662,0.498967154327739
2.24,0.00599967070134453,0.00486859768963149,0.0418867094301581,-1.2285451573784e-16,1.52404101967504,0.00599967070134454,0.0718190125138318,0.0476767787740962,0.00814487285564028,-3.36691552203685e-18,-0.0558216516297385,0.0718190125138319,0.546449008257416,0.362758099368123,0.0619718586842195,-2.56178354937586e-17,-0.424729958052358,0.546449008257416,0,0,0,0,0,0,0.350937620768579,0.00210553542503721,0.498832468598668
2.25,0.0067454554165209,0.00536368404119777,0.0419712876145438,-1.22889478542893e-16,1.52346135513908,0.0067454554165209,0.0773649389003819,0.0513584209489736,0.00877382699611236,-3.62691165650546e-18,-0.0601322479450882,0.0773649389003819,0.562654101093687,0.373515788719808,0.0638096508808172,-2.63775393200397e-17,-0.437325439600641,0.562654101093687,0,0,0,0,0,0,0.351052905118671,0.00236804763673881,0.498687079574486
2.26,0.00754750144977681,0.00589611925515757,0.0420622462999473,-1.22927078910041e-16,1.52283796123972,0.00754750144977682,0.0830704577237751,0.055146007957107,0.00942088024518133,-3.8943895737778e-18,-0.0645668882022907,0.0830704577237751,0.578368150350821,0.383947500655882,0.0655917546548279,-2.71142227483688e-17,-0.449539255310727,0.578368150350821,0,0,0,0,0,0,0.351176573184856,0.00265055602487678,0.498530658587192
2.27,0.00840738023877422,0.00646694652443633,0.0421597637004588,-1.22967390509163e-16,1.52216961656993,0.00840738023877423,0.0889306781899633,0.0590362930634369,0.0100854779461582,-4.16911999069028e-18,-0.0691217710095977,0.0889306781899633,0.593595084377451,0.394055842995672,0.0673186155136325,-2.78280699419294e-17,-0.461374458509321,0.593595084377452,0,0,0,0,0,0,0.351308797651367,0.00295365623553051,0.498362885080341
